;FLAVOR:Marlin
;TIME:2393
;Filament used: 1.29357m
;Layer height: 0.2
;MINX:77.48
;MINY:92.48
;MINZ:0.2
;MAXX:142.52
;MAXY:127.52
;MAXZ:4
;TARGET_MACHINE.NAME:Anycubic i3 Mega
;Generated with Cura_SteamEngine 5.8.0
M140 S68
M105
M190 S68
M104 S205
M105
M109 S205
M82 ;absolute extrusion mode
G21 ;metric values
G90 ;absolute positioning
M82 ;set extruder to absolute mode
M107 ;start with the fan off
G28 X0 Y0 ;move X/Y to min endstops
G28 Z0 ;move Z to min endstops
M501
M420 S1; Mesh verwenden, Drucker mit 25 pkten gelevelt
G1 Z15.0 F100 ;move the platform down 15mm
G92 E0 ;zero the extruded length
G1 F200 E3 ;extrude 3mm of feed stock
G92 E0 ;zero the extruded length again
G1 F100
M117 Printing...
G5
G92 E0
G92 E0
G1 F1200 E-5
;LAYER_COUNT:20
;LAYER:0
M107
M204 S3000
M205 X10 Y10
G1 F600 Z0.275
G0 F1200 X80.248 Y94.192 Z0.275
M204 S1800
M205 X8 Y8
;TYPE:SKIRT
G1 F600 Z0.2
G1 F1200 E0
G1 F2400 X80.941 Y93.689 E0.04354
G1 X81.814 Y93.205 E0.0943
G1 X82.543 Y92.907 E0.13434
G1 X83.487 Y92.647 E0.18413
G1 X84.956 Y92.48 E0.25931
G1 X134.325 Y92.48 E2.76963
G1 X135.099 Y92.491 E2.80899
G1 X136.026 Y92.566 E2.85628
G1 X136.998 Y92.766 E2.90674
G1 X137.679 Y92.99 E2.94319
G1 X138.773 Y93.514 E3.00487
G1 X139.535 Y94.021 E3.05141
G1 X140.179 Y94.569 E3.09441
G1 X140.719 Y95.142 E3.13444
G1 X141.348 Y95.998 E3.18846
G1 X141.763 Y96.747 E3.232
G1 X142.113 Y97.605 E3.27911
G1 X142.373 Y98.611 E3.33195
G1 X142.517 Y99.895 E3.39765
G1 X142.52 Y119.358 E4.3873
G1 X142.507 Y120.165 E4.42834
G1 X142.416 Y121.159 E4.4791
G1 X142.22 Y122.054 E4.52568
G1 X141.941 Y122.854 E4.56877
G1 X141.543 Y123.676 E4.6152
G1 X141.119 Y124.343 E4.65539
G1 X140.385 Y125.227 E4.71382
G1 X139.766 Y125.797 E4.7566
G1 X139.073 Y126.302 E4.80021
G1 X138.201 Y126.787 E4.85094
G1 X137.336 Y127.132 E4.89829
G1 X136.562 Y127.34 E4.93905
G1 X135.045 Y127.52 E5.01673
G1 X85.61 Y127.52 E7.5304
G1 X84.833 Y127.507 E7.56992
G1 X83.845 Y127.418 E7.62036
G1 X83.14 Y127.273 E7.65695
G1 X82.137 Y126.937 E7.71074
G1 X81.371 Y126.568 E7.75397
G1 X80.53 Y126.026 E7.80485
G1 X79.77 Y125.383 E7.85547
G1 X79.239 Y124.81 E7.89519
G1 X78.66 Y124.017 E7.94512
G1 X78.305 Y123.392 E7.98167
G1 X77.87 Y122.348 E8.03918
G1 X77.667 Y121.616 E8.0778
G1 X77.48 Y120.039 E8.15855
G1 X77.48 Y100.57 E9.14851
G1 X77.493 Y99.828 E9.18625
G1 X77.564 Y98.976 E9.22972
G1 X77.746 Y98.078 E9.27631
G1 X78.068 Y97.128 E9.32732
G1 X78.511 Y96.232 E9.37814
G1 X78.982 Y95.517 E9.42168
G1 X79.622 Y94.767 E9.47181
G1 X80.248 Y94.192 E9.51503
M204 S3000
M205 X10 Y10
G0 F1200 X80.579 Y94.644
M204 S1800
M205 X8 Y8
G1 F2400 X81.213 Y94.179 E9.55501
G1 X82.086 Y93.695 E9.60577
G1 X82.752 Y93.427 E9.64227
G1 X83.593 Y93.198 E9.68659
G1 X84.956 Y93.04 E9.75636
G1 X134.317 Y93.04 E12.26627
G1 X135.091 Y93.051 E12.30563
G1 X135.913 Y93.115 E12.34756
G1 X136.885 Y93.315 E12.39802
G1 X137.501 Y93.521 E12.43104
G1 X138.465 Y93.982 E12.48538
G1 X139.174 Y94.449 E12.52855
G1 X139.771 Y94.953 E12.56827
G1 X140.311 Y95.526 E12.60831
G1 X140.859 Y96.272 E12.65538
G1 X141.244 Y96.959 E12.69542
G1 X141.594 Y97.817 E12.74254
G1 X141.816 Y98.673 E12.78751
G1 X141.96 Y99.957 E12.8532
G1 X141.96 Y119.35 E13.8393
G1 X141.949 Y120.116 E13.87825
G1 X141.868 Y121.042 E13.92552
G1 X141.69 Y121.872 E13.96868
G1 X141.436 Y122.612 E14.00847
G1 X141.068 Y123.379 E14.05172
G1 X140.687 Y123.987 E14.08821
G1 X140.004 Y124.817 E14.14286
G1 X139.434 Y125.346 E14.18241
G1 X138.798 Y125.814 E14.22256
G1 X137.991 Y126.268 E14.26964
G1 X137.191 Y126.591 E14.31351
G1 X136.417 Y126.799 E14.35426
G1 X135.045 Y126.96 E14.4245
G1 X85.618 Y126.96 E16.93777
G1 X84.881 Y126.949 E16.97525
G1 X83.958 Y126.869 E17.02236
G1 X83.253 Y126.724 E17.05896
G1 X82.38 Y126.432 E17.10577
G1 X81.614 Y126.063 E17.149
G1 X80.89 Y125.597 E17.19278
G1 X80.181 Y125.002 E17.23984
G1 X79.65 Y124.429 E17.27957
G1 X79.147 Y123.74 E17.32294
G1 X78.792 Y123.115 E17.35949
G1 X78.41 Y122.198 E17.41
G1 X78.207 Y121.466 E17.44863
G1 X78.04 Y120.039 E17.52169
G1 X78.04 Y100.579 E18.51119
G1 X78.051 Y99.875 E18.54699
G1 X78.122 Y99.023 E18.59046
G1 X78.294 Y98.192 E18.63361
G1 X78.571 Y97.374 E18.67753
G1 X78.979 Y96.54 E18.72474
G1 X79.45 Y95.825 E18.76827
G1 X80.002 Y95.178 E18.81152
G1 X80.579 Y94.644 E18.85149
M204 S3000
M205 X10 Y10
G0 F1200 X80.91 Y95.096
M204 S1800
M205 X8 Y8
G1 F2400 X81.544 Y94.631 E18.89147
G1 X82.295 Y94.215 E18.93513
G1 X82.961 Y93.947 E18.97163
G1 X83.738 Y93.739 E19.01253
G1 X84.956 Y93.6 E19.07487
G1 X134.309 Y93.6 E21.58437
G1 X135.083 Y93.611 E21.62373
G1 X135.869 Y93.673 E21.66382
G1 X136.707 Y93.846 E21.70733
G1 X137.323 Y94.052 E21.74036
G1 X138.159 Y94.451 E21.78746
G1 X138.815 Y94.879 E21.82729
G1 X139.365 Y95.339 E21.86375
G1 X139.861 Y95.86 E21.90033
G1 X140.37 Y96.546 E21.94376
G1 X140.755 Y97.233 E21.98381
G1 X141.053 Y97.962 E22.02385
G1 X141.26 Y98.737 E22.06464
G1 X141.4 Y99.957 E22.12708
G1 X141.4 Y119.343 E23.11282
G1 X141.391 Y120.07 E23.14979
G1 X141.32 Y120.927 E23.19352
G1 X141.159 Y121.693 E23.23332
G1 X140.93 Y122.372 E23.26976
G1 X140.593 Y123.082 E23.30972
G1 X140.212 Y123.69 E23.3462
G1 X139.621 Y124.408 E23.39349
G1 X139.099 Y124.897 E23.42986
G1 X138.523 Y125.326 E23.46638
G1 X137.716 Y125.78 E23.51346
G1 X137.046 Y126.05 E23.55019
G1 X136.272 Y126.258 E23.59094
G1 X135.045 Y126.4 E23.65375
G1 X85.625 Y126.4 E26.16666
G1 X84.927 Y126.391 E26.20216
G1 X84.071 Y126.32 E26.24583
G1 X83.366 Y126.175 E26.28243
G1 X82.56 Y125.902 E26.3257
G1 X81.915 Y125.591 E26.36211
G1 X81.248 Y125.166 E26.40233
G1 X80.59 Y124.619 E26.44584
G1 X80.101 Y124.097 E26.48221
G1 X79.634 Y123.463 E26.52225
G1 X79.279 Y122.838 E26.5588
G1 X78.95 Y122.048 E26.60231
G1 X78.747 Y121.316 E26.64094
G1 X78.6 Y120.039 E26.7063
G1 X78.6 Y100.587 E27.69539
G1 X78.609 Y99.922 E27.72921
G1 X78.68 Y99.07 E27.77268
G1 X78.825 Y98.369 E27.80908
G1 X79.075 Y97.618 E27.84933
G1 X79.448 Y96.846 E27.89293
G1 X79.878 Y96.186 E27.93298
G1 X80.384 Y95.587 E27.97285
G1 X80.91 Y95.096 E28.00944
M204 S3000
M205 X10 Y10
G0 F1200 X81.241 Y95.548
M204 S1800
M205 X8 Y8
G1 F2400 X81.875 Y95.083 E28.04942
G1 X82.504 Y94.735 E28.08597
G1 X83.17 Y94.467 E28.12247
G1 X83.88 Y94.281 E28.1598
G1 X84.956 Y94.16 E28.21485
G1 X134.301 Y94.16 E30.72395
G1 X135.075 Y94.171 E30.76331
G1 X135.824 Y94.231 E30.80152
G1 X136.529 Y94.377 E30.83813
G1 X137.145 Y94.583 E30.87116
G1 X137.855 Y94.922 E30.91116
G1 X138.458 Y95.311 E30.94765
G1 X138.959 Y95.725 E30.9807
G1 X139.455 Y96.246 E31.01727
G1 X139.883 Y96.822 E31.05376
G1 X140.238 Y97.448 E31.09036
G1 X140.513 Y98.111 E31.12685
G1 X140.704 Y98.803 E31.16336
G1 X140.84 Y99.957 E31.22244
G1 X140.84 Y119.336 E32.20783
G1 X140.831 Y120.063 E32.2448
G1 X140.772 Y120.814 E32.2831
G1 X140.627 Y121.517 E32.3196
G1 X140.423 Y122.134 E32.35264
G1 X140.118 Y122.785 E32.3892
G1 X139.737 Y123.393 E32.42568
G1 X139.236 Y124.001 E32.46574
G1 X138.764 Y124.448 E32.4988
G1 X138.188 Y124.877 E32.53531
G1 X137.503 Y125.262 E32.57527
G1 X136.901 Y125.509 E32.60836
G1 X136.127 Y125.717 E32.64911
G1 X135.045 Y125.84 E32.70448
G1 X85.632 Y125.84 E35.21704
G1 X84.934 Y125.831 E35.25253
G1 X84.184 Y125.771 E35.29079
G1 X83.479 Y125.626 E35.32739
G1 X82.8 Y125.396 E35.36384
G1 X82.213 Y125.117 E35.39689
G1 X81.604 Y124.734 E35.43347
G1 X80.997 Y124.234 E35.47346
G1 X80.55 Y123.762 E35.50651
G1 X80.121 Y123.186 E35.54303
G1 X79.766 Y122.561 E35.57958
G1 X79.49 Y121.898 E35.6161
G1 X79.287 Y121.166 E35.65472
G1 X79.16 Y120.039 E35.71239
G1 X79.16 Y100.595 E36.70108
G1 X79.169 Y99.93 E36.7349
G1 X79.229 Y99.18 E36.77316
G1 X79.357 Y98.543 E36.8062
G1 X79.58 Y97.859 E36.84278
G1 X79.919 Y97.149 E36.88278
G1 X80.308 Y96.545 E36.91932
G1 X80.769 Y95.994 E36.95585
G1 X81.241 Y95.548 E36.98887
M204 S3000
M205 X10 Y10
G0 F1200 X81.626 Y95.955
M204 S1800
M205 X8 Y8
G1 F2400 X82.149 Y95.571 E37.02186
G1 X82.716 Y95.253 E37.05491
G1 X83.317 Y95.007 E37.08793
G1 X83.944 Y94.837 E37.12097
G1 X84.956 Y94.72 E37.17277
G1 X134.293 Y94.72 E39.68146
G1 X135.067 Y94.731 E39.72082
G1 X135.714 Y94.78 E39.75381
G1 X136.351 Y94.908 E39.78685
G1 X136.967 Y95.114 E39.81988
G1 X137.554 Y95.394 E39.85295
G1 X138.101 Y95.743 E39.88594
G1 X138.602 Y96.157 E39.91899
G1 X139.047 Y96.63 E39.95201
G1 X139.432 Y97.154 E39.98507
G1 X139.749 Y97.721 E40.0181
G1 X139.994 Y98.322 E40.05111
G1 X140.163 Y98.949 E40.08412
G1 X140.28 Y99.957 E40.13572
G1 X140.28 Y119.329 E41.12075
G1 X140.271 Y120.056 E41.15772
G1 X140.223 Y120.704 E41.19076
G1 X140.095 Y121.341 E41.2238
G1 X139.891 Y121.958 E41.25684
G1 X139.612 Y122.545 E41.28989
G1 X139.264 Y123.093 E41.3229
G1 X138.851 Y123.594 E41.35591
G1 X138.379 Y124.041 E41.38897
G1 X137.856 Y124.426 E41.42199
G1 X137.29 Y124.744 E41.455
G1 X136.688 Y124.991 E41.48809
G1 X136.062 Y125.161 E41.52107
G1 X135.045 Y125.28 E41.57314
G1 X85.639 Y125.28 E44.08534
G1 X84.941 Y125.271 E44.12084
G1 X84.293 Y125.222 E44.15388
G1 X83.656 Y125.095 E44.18691
G1 X83.04 Y124.89 E44.21992
G1 X82.453 Y124.611 E44.25297
G1 X81.905 Y124.262 E44.286
G1 X81.404 Y123.849 E44.31902
G1 X80.957 Y123.377 E44.35207
G1 X80.572 Y122.854 E44.38509
G1 X80.254 Y122.287 E44.41815
G1 X80.008 Y121.686 E44.45117
G1 X79.838 Y121.059 E44.4842
G1 X79.72 Y120.039 E44.53641
G1 X79.72 Y100.603 E45.5247
G1 X79.729 Y99.938 E45.55851
G1 X79.778 Y99.29 E45.59156
G1 X79.906 Y98.653 E45.6246
G1 X80.111 Y98.036 E45.65765
G1 X80.391 Y97.45 E45.69068
G1 X80.74 Y96.902 E45.72371
G1 X81.154 Y96.401 E45.75676
G1 X81.626 Y95.955 E45.78978
M204 S3000
M205 X10 Y10
G1 F1200 E40.78978
;MESH:plate.stl
G0 X135.653 Y99.347
G0 X135.653 Y120.653
G0 X133.6 Y120.665
G0 X133.6 Y118.6
M204 S1800
M205 X8 Y8
;TYPE:WALL-INNER
G1 F1200 E45.78978
G1 X133.6 Y101.4 E46.63073
G1 X86.4 Y101.4 E48.93845
G1 X86.4 Y118.6 E49.7794
G1 X133.6 Y118.6 E52.08712
M204 S3000
M205 X10 Y10
G0 X134.16 Y119.16
M204 S1800
M205 X8 Y8
G1 X134.16 Y100.84 E52.98283
G1 X85.84 Y100.84 E55.34531
G1 X85.84 Y119.16 E56.24102
G1 X134.16 Y119.16 E58.6035
M204 S3000
M205 X10 Y10
G0 X134.72 Y119.72
M204 S1800
M205 X8 Y8
;TYPE:WALL-OUTER
G1 X134.72 Y100.28 E59.55397
G1 X85.28 Y100.28 E61.97121
G1 X85.28 Y119.72 E62.92168
G1 X134.72 Y119.72 E65.33892
M204 S3000
M205 X10 Y10
G0 X134.72 Y119.52
G1 F1200 E60.33892
G0 X135.665 Y119.52
G0 X135.665 Y110.25
G0 X125.25 Y110.25
M204 S1800
M205 X8 Y8
;TYPE:SKIN
G1 F1200 E65.33892
G1 F1344 X94.75 Y110.25 E66.67036
G1 X94.75 Y109.75 E66.69219
G1 X125.25 Y109.75 E68.02363
G1 X125.25 Y110.25 E68.04546
M204 S3000
M205 X10 Y10
G0 F1200 X125.78 Y110.78
M204 S1800
M205 X8 Y8
G1 X94.22 Y110.78 E69.58851
G1 X94.22 Y109.22 E69.66478
G1 X125.78 Y109.22 E71.20782
G1 X125.78 Y110.78 E71.28409
M204 S3000
M205 X10 Y10
G0 X126.34 Y111.34
M204 S1800
M205 X8 Y8
G1 X93.66 Y111.34 E72.8819
G1 X93.66 Y108.66 E73.01293
G1 X126.34 Y108.66 E74.61073
G1 X126.34 Y111.34 E74.74176
M204 S3000
M205 X10 Y10
G0 X126.9 Y111.9
M204 S1800
M205 X8 Y8
G1 X93.1 Y111.9 E76.39433
G1 X93.1 Y108.1 E76.58012
G1 X126.9 Y108.1 E78.23268
G1 X126.9 Y111.9 E78.41847
M204 S3000
M205 X10 Y10
G0 X127.46 Y112.46
M204 S1800
M205 X8 Y8
G1 X92.54 Y112.46 E80.1258
G1 X92.54 Y107.54 E80.36635
G1 X127.46 Y107.54 E82.07367
G1 X127.46 Y112.46 E82.31422
M204 S3000
M205 X10 Y10
G0 X128.02 Y113.02
M204 S1800
M205 X8 Y8
G1 X91.98 Y113.02 E84.0763
G1 X91.98 Y106.98 E84.37161
G1 X128.02 Y106.98 E86.13369
G1 X128.02 Y113.02 E86.429
M204 S3000
M205 X10 Y10
G0 X128.58 Y113.58
M204 S1800
M205 X8 Y8
G1 X91.42 Y113.58 E88.24585
G1 X91.42 Y106.42 E88.59591
G1 X128.58 Y106.42 E90.41276
G1 X128.58 Y113.58 E90.76283
M204 S3000
M205 X10 Y10
G0 X129.14 Y114.14
M204 S1800
M205 X8 Y8
G1 X90.86 Y114.14 E92.63443
G1 X90.86 Y105.86 E93.03926
G1 X129.14 Y105.86 E94.91086
G1 X129.14 Y114.14 E95.31569
M204 S3000
M205 X10 Y10
G0 X129.7 Y114.7
M204 S1800
M205 X8 Y8
G1 X90.3 Y114.7 E97.24205
G1 X90.3 Y105.3 E97.70163
G1 X129.7 Y105.3 E99.628
G1 X129.7 Y114.7 E100.08758
M204 S3000
M205 X10 Y10
G0 X130.26 Y115.26
M204 S1800
M205 X8 Y8
G1 X89.74 Y115.26 E102.0687
G1 X89.74 Y104.74 E102.58305
G1 X130.26 Y104.74 E104.56417
G1 X130.26 Y115.26 E105.07852
M204 S3000
M205 X10 Y10
G0 X130.82 Y115.82
M204 S1800
M205 X8 Y8
G1 X89.18 Y115.82 E107.1144
G1 X89.18 Y104.18 E107.68351
G1 X130.82 Y104.18 E109.71939
G1 X130.82 Y115.82 E110.28849
M204 S3000
M205 X10 Y10
G0 X131.38 Y116.38
M204 S1800
M205 X8 Y8
G1 X88.62 Y116.38 E112.37913
G1 X88.62 Y103.62 E113.003
G1 X131.38 Y103.62 E115.09364
G1 X131.38 Y116.38 E115.71751
M204 S3000
M205 X10 Y10
G0 X131.94 Y116.94
M204 S1800
M205 X8 Y8
G1 X88.06 Y116.94 E117.8629
G1 X88.06 Y103.06 E118.54153
G1 X131.94 Y103.06 E120.68693
G1 X131.94 Y116.94 E121.36556
M204 S3000
M205 X10 Y10
G0 X132.5 Y117.5
M204 S1800
M205 X8 Y8
G1 X87.5 Y117.5 E123.56571
G1 X87.5 Y102.5 E124.2991
G1 X132.5 Y102.5 E126.49926
G1 X132.5 Y117.5 E127.23264
M204 S3000
M205 X10 Y10
G0 X133.06 Y118.06
M104 S200
M204 S1800
M205 X8 Y8
G1 X86.94 Y118.06 E129.48756
G1 X86.94 Y101.94 E130.27571
G1 X133.06 Y101.94 E132.53062
G1 X133.06 Y118.06 E133.31877
M204 S3000
M205 X10 Y10
G1 F1200 E128.31877
;MESH:NONMESH
G0 F600 X133.06 Y118.06 Z0.4
G0 F1200 X133.06 Y120.665
G0 X135.653 Y120.653
G0 X135.653 Y99.347
G0 X81.626 Y95.955
;TIME_ELAPSED:131.448082
;LAYER:1
M140 S60
M106 S127.5
M204 S1800
M205 X8 Y8
;TYPE:SKIRT
G1 F1200 E133.31877
G1 F2400 X82.149 Y95.571 E133.34121
G1 X82.716 Y95.253 E133.3637
G1 X83.317 Y95.007 E133.38616
G1 X83.944 Y94.837 E133.40863
G1 X84.956 Y94.72 E133.44387
G1 X134.293 Y94.72 E135.15047
G1 X135.067 Y94.731 E135.17724
G1 X135.714 Y94.78 E135.19969
G1 X136.351 Y94.908 E135.22216
G1 X136.967 Y95.114 E135.24463
G1 X137.554 Y95.394 E135.26712
G1 X138.101 Y95.743 E135.28957
G1 X138.602 Y96.157 E135.31205
G1 X139.047 Y96.63 E135.33451
G1 X139.432 Y97.154 E135.35701
G1 X139.749 Y97.721 E135.37948
G1 X139.994 Y98.322 E135.40193
G1 X140.163 Y98.949 E135.42439
G1 X140.28 Y99.957 E135.45949
G1 X140.28 Y119.329 E136.12958
G1 X140.271 Y120.056 E136.15473
G1 X140.223 Y120.704 E136.1772
G1 X140.095 Y121.341 E136.19968
G1 X139.891 Y121.958 E136.22216
G1 X139.612 Y122.545 E136.24464
G1 X139.264 Y123.093 E136.26709
G1 X138.851 Y123.594 E136.28955
G1 X138.379 Y124.041 E136.31204
G1 X137.856 Y124.426 E136.3345
G1 X137.29 Y124.744 E136.35696
G1 X136.688 Y124.991 E136.37947
G1 X136.062 Y125.161 E136.4019
G1 X135.045 Y125.28 E136.43732
G1 X85.639 Y125.28 E138.1463
G1 X84.941 Y125.271 E138.17045
G1 X84.293 Y125.222 E138.19293
G1 X83.656 Y125.095 E138.2154
G1 X83.04 Y124.89 E138.23785
G1 X82.453 Y124.611 E138.26033
G1 X81.905 Y124.262 E138.28281
G1 X81.404 Y123.849 E138.30527
G1 X80.957 Y123.377 E138.32775
G1 X80.572 Y122.854 E138.35022
G1 X80.254 Y122.287 E138.3727
G1 X80.008 Y121.686 E138.39517
G1 X79.838 Y121.059 E138.41764
G1 X79.72 Y120.039 E138.45316
G1 X79.72 Y100.603 E139.12546
G1 X79.729 Y99.938 E139.14846
G1 X79.778 Y99.29 E139.17094
G1 X79.906 Y98.653 E139.19342
G1 X80.111 Y98.036 E139.21591
G1 X80.391 Y97.45 E139.23837
G1 X80.74 Y96.902 E139.26084
G1 X81.154 Y96.401 E139.28332
G1 X81.626 Y95.955 E139.30579
M204 S3000
M205 X10 Y10
G1 F1200 E134.30579
;MESH:plate.stl
G0 F3600 X135.653 Y99.347
G0 X135.653 Y120.653
G0 X134 Y120.665
G0 X134 Y119
M204 S1800
M205 X8 Y8
;TYPE:WALL-INNER
G1 F1200 E139.30579
G1 F2100 X134 Y101 E139.90447
G1 X86 Y101 E141.50096
G1 X86 Y119 E142.09964
G1 X134 Y119 E143.69613
M204 S3000
M205 X10 Y10
G0 F3600 X134.4 Y119.4
M204 S1800
M205 X8 Y8
G1 F2100 X134.4 Y100.6 E144.32142
G1 X85.6 Y100.6 E145.94451
G1 X85.6 Y119.4 E146.5698
G1 X134.4 Y119.4 E148.1929
M204 S3000
M205 X10 Y10
G0 F3600 X134.8 Y119.8
M204 S1800
M205 X8 Y8
;TYPE:WALL-OUTER
G1 F2100 X134.8 Y100.2 E148.84479
G1 X85.2 Y100.2 E150.4945
G1 X85.2 Y119.8 E151.1464
G1 X134.8 Y119.8 E152.7961
M204 S3000
M205 X10 Y10
G0 F3600 X134.8 Y119.6
G1 F1200 E147.7961
G0 F3600 X133.62 Y118.62
M204 S1800
M205 X8 Y8
;TYPE:SKIN
G1 F1200 E152.7961
G1 X86.38 Y118.62 E154.36731
G1 X86.38 Y101.38 E154.94071
G1 X133.62 Y101.38 E156.51192
G1 X133.62 Y118.62 E157.08533
M204 S3000
M205 X10 Y10
G0 F3600 X133.31 Y118.42
M204 S1800
M205 X8 Y8
G1 F1200 X133.42 Y118.31 E157.0905
M204 S3000
M205 X10 Y10
G0 F3600 X133.42 Y117.745
M204 S1800
