;FLAVOR:Marlin
;TIME:4820
;Filament used: 6.11316m
;Layer height: 0.3
;MINX:87.48
;MINY:59.48
;MINZ:0.3
;MAXX:132.52
;MAXY:160.519
;MAXZ:24.075
;TARGET_MACHINE.NAME:Anycubic i3 Mega
;Generated with Cura_SteamEngine 5.8.0
M140 S68
M105
M190 S68
M104 S205
M105
M109 S205
M82 ;absolute extrusion mode
G21 ;metric values
G90 ;absolute positioning
M82 ;set extruder to absolute mode
M107 ;start with the fan off
G28 X0 Y0 ;move X/Y to min endstops
G28 Z0 ;move Z to min endstops
M501
M420 S1; Mesh verwenden, Drucker mit 25 pkten gelevelt
G1 Z15.0 F100 ;move the platform down 15mm
G92 E0 ;zero the extruded length
G1 F200 E3 ;extrude 3mm of feed stock
G92 E0 ;zero the extruded length again
G1 F100
M117 Printing...
G5
G92 E0
G92 E0
G1 F2400 E-6
;LAYER_COUNT:80
;LAYER:0
M107
M204 S3000
M205 X10 Y10
G1 F600 Z0.375
G0 F2000 X90.003 Y70.568 Z0.375
M204 S1800
M205 X8 Y8
;TYPE:SKIRT
G1 F600 Z0.3
G1 F2400 E0
G1 X90.595 Y69.977 E0.06135
G1 X91.148 Y69.526 E0.11368
G1 X91.644 Y69.165 E0.15867
G1 X93.77 Y67.577 E0.35328
G1 X95.819 Y65.95 E0.54517
G1 X97.813 Y64.275 E0.73615
G1 X99.764 Y62.538 E0.92773
G1 X100.595 Y61.761 E1.01116
G1 X101.058 Y61.349 E1.05662
G1 X101.811 Y60.771 E1.12623
G1 X102.486 Y60.368 E1.18389
G1 X103.454 Y59.937 E1.2616
G1 X104.075 Y59.743 E1.30931
G1 X105.153 Y59.542 E1.38973
G1 X106 Y59.48 E1.45202
G1 X113.325 Y59.48 E1.98922
G1 X114.141 Y59.493 E2.04908
G1 X115.104 Y59.577 E2.11997
G1 X116.08 Y59.789 E2.19322
G1 X116.936 Y60.09 E2.25976
G1 X117.522 Y60.369 E2.30736
G1 X118.415 Y60.93 E2.3847
G1 X119.09 Y61.478 E2.44847
G1 X119.598 Y61.949 E2.49927
G1 X121.577 Y63.741 E2.69507
G1 X123.564 Y65.438 E2.88671
G1 X125.647 Y67.119 E3.08301
G1 X128.049 Y68.939 E3.30403
G1 X128.951 Y69.603 E3.38617
G1 X129.555 Y70.116 E3.44429
G1 X130.395 Y71.034 E3.53554
G1 X131.059 Y71.994 E3.62115
G1 X131.528 Y72.81 E3.69017
G1 X131.995 Y73.936 E3.77957
G1 X132.189 Y74.659 E3.83447
G1 X132.389 Y75.684 E3.91106
G1 X132.509 Y76.877 E3.999
G1 X132.52 Y77.61 E4.05276
G1 X132.519 Y142.411 E8.80517
G1 X132.508 Y143.121 E8.85725
G1 X132.369 Y144.499 E8.95882
G1 X132.18 Y145.383 E9.02512
G1 X131.931 Y146.245 E9.09092
G1 X131.518 Y147.208 E9.16777
G1 X131.183 Y147.797 E9.21746
G1 X130.627 Y148.643 E9.29171
G1 X130.066 Y149.355 E9.35819
G1 X129.203 Y150.204 E9.44697
G1 X126.233 Y152.421 E9.71878
G1 X124.181 Y154.05 E9.91093
G1 X122.187 Y155.725 E10.10191
G1 X120.217 Y157.478 E10.29531
G1 X119.404 Y158.239 E10.37698
G1 X118.941 Y158.651 E10.42243
G1 X118.188 Y159.229 E10.49205
G1 X117.513 Y159.632 E10.5497
G1 X116.545 Y160.063 E10.62741
G1 X115.864 Y160.272 E10.67966
G1 X115.032 Y160.434 E10.74182
G1 X114.044 Y160.518 E10.81454
G1 X106.6 Y160.519 E11.36047
G1 X105.859 Y160.507 E11.41482
G1 X104.896 Y160.423 E11.48572
G1 X103.92 Y160.211 E11.55896
G1 X103.064 Y159.91 E11.62551
G1 X102.478 Y159.631 E11.67311
G1 X101.585 Y159.07 E11.75045
G1 X100.91 Y158.522 E11.81421
G1 X100.402 Y158.051 E11.86502
G1 X98.423 Y156.259 E12.06082
G1 X96.37 Y154.506 E12.2588
G1 X94.37 Y152.893 E12.44724
G1 X91.961 Y151.069 E12.66884
G1 X91.017 Y150.368 E12.75507
G1 X90.322 Y149.766 E12.8225
G1 X89.744 Y149.139 E12.88505
G1 X88.846 Y147.854 E13.00002
G1 X88.389 Y147.021 E13.0697
G1 X88.018 Y146.099 E13.14259
G1 X87.811 Y145.336 E13.20057
G1 X87.611 Y144.313 E13.27701
G1 X87.491 Y143.113 E13.36546
G1 X87.48 Y142.356 E13.42098
G1 X87.481 Y77.581 E18.17149
G1 X87.504 Y76.678 E18.23773
G1 X87.618 Y75.635 E18.31468
G1 X87.803 Y74.698 E18.38473
G1 X88.069 Y73.744 E18.45736
G1 X88.341 Y73.078 E18.51012
G1 X88.886 Y72.097 E18.59242
G1 X89.386 Y71.351 E18.65828
G1 X90.003 Y70.568 E18.73139
M204 S3000
M205 X10 Y10
G0 F2000 X90.399 Y70.964
M204 S1800
M205 X8 Y8
G1 F2400 X90.991 Y70.373 E18.79274
G1 X91.478 Y69.979 E18.83868
G1 X91.974 Y69.618 E18.88367
G1 X94.105 Y68.026 E19.07876
G1 X96.167 Y66.389 E19.27184
G1 X98.173 Y64.704 E19.46397
G1 X100.147 Y62.947 E19.65778
G1 X100.968 Y62.179 E19.74023
G1 X101.401 Y61.792 E19.78282
G1 X102.101 Y61.25 E19.84775
G1 X102.715 Y60.879 E19.90036
G1 X103.621 Y60.472 E19.9732
G1 X104.242 Y60.278 E20.02092
G1 X105.195 Y60.1 E20.09202
G1 X106 Y60.04 E20.15122
G1 X113.317 Y60.04 E20.68784
G1 X114.095 Y60.051 E20.7449
G1 X114.988 Y60.125 E20.81061
G1 X115.896 Y60.318 E20.87869
G1 X116.695 Y60.596 E20.94074
G1 X117.281 Y60.875 E20.98834
G1 X118.115 Y61.403 E21.06073
G1 X118.709 Y61.889 E21.11701
G1 X119.217 Y62.36 E21.16782
G1 X121.213 Y64.167 E21.36528
G1 X123.212 Y65.874 E21.55806
G1 X125.295 Y67.555 E21.75437
G1 X127.717 Y69.39 E21.97722
G1 X128.591 Y70.032 E22.05675
G1 X129.143 Y70.496 E22.10963
G1 X129.934 Y71.353 E22.19516
G1 X130.598 Y72.313 E22.28077
G1 X131.042 Y73.088 E22.34627
G1 X131.454 Y74.082 E22.42519
G1 X131.639 Y74.766 E22.47715
G1 X131.839 Y75.791 E22.55374
G1 X131.949 Y76.886 E22.63445
G1 X131.96 Y77.61 E22.68755
G1 X131.959 Y142.402 E27.43931
G1 X131.948 Y143.112 E27.49139
G1 X131.821 Y144.382 E27.58499
G1 X131.632 Y145.266 E27.65129
G1 X131.415 Y146.026 E27.70925
G1 X131.031 Y146.931 E27.78135
G1 X130.696 Y147.52 E27.83104
G1 X130.187 Y148.296 E27.89911
G1 X129.626 Y149.008 E27.96558
G1 X128.868 Y149.755 E28.04363
G1 X125.898 Y151.972 E28.31544
G1 X123.833 Y153.611 E28.50879
G1 X121.827 Y155.296 E28.70092
G1 X119.845 Y157.06 E28.89551
G1 X119.031 Y157.821 E28.97723
G1 X118.598 Y158.208 E29.01982
G1 X117.898 Y158.75 E29.08475
G1 X117.284 Y159.121 E29.13736
G1 X116.378 Y159.528 E29.2102
G1 X115.757 Y159.722 E29.25792
G1 X114.925 Y159.884 E29.32008
G1 X114.044 Y159.958 E29.38492
G1 X106.608 Y159.959 E29.93027
G1 X105.905 Y159.949 E29.98183
G1 X105.012 Y159.875 E30.04754
G1 X104.104 Y159.682 E30.11562
G1 X103.305 Y159.404 E30.17767
G1 X102.719 Y159.125 E30.22527
G1 X101.885 Y158.597 E30.29766
G1 X101.291 Y158.111 E30.35394
G1 X100.783 Y157.64 E30.40475
G1 X98.787 Y155.833 E30.60221
G1 X96.734 Y154.08 E30.80019
G1 X94.721 Y152.457 E30.98983
G1 X92.299 Y150.623 E31.21264
G1 X91.382 Y149.944 E31.29632
G1 X90.734 Y149.386 E31.35903
G1 X90.156 Y148.759 E31.42157
G1 X89.336 Y147.582 E31.52678
G1 X88.909 Y146.812 E31.59135
G1 X88.538 Y145.89 E31.66424
G1 X88.361 Y145.229 E31.71442
G1 X88.161 Y144.206 E31.79087
G1 X88.051 Y143.105 E31.87201
G1 X88.04 Y142.356 E31.92695
G1 X88.041 Y77.594 E36.6765
G1 X88.061 Y76.738 E36.7393
G1 X88.168 Y75.742 E36.81277
G1 X88.343 Y74.847 E36.87965
G1 X88.589 Y73.953 E36.94765
G1 X88.831 Y73.35 E36.9953
G1 X89.376 Y72.369 E37.0776
G1 X89.827 Y71.696 E37.13702
G1 X90.399 Y70.964 E37.20515
M204 S3000
M205 X10 Y10
G0 F2000 X90.796 Y71.359
M204 S1800
M205 X8 Y8
G1 F2400 X91.344 Y70.808 E37.26214
G1 X91.808 Y70.432 E37.30594
G1 X92.304 Y70.071 E37.35093
G1 X94.44 Y68.475 E37.54648
G1 X96.515 Y66.828 E37.74077
G1 X98.533 Y65.133 E37.93404
G1 X100.53 Y63.356 E38.13009
G1 X101.342 Y62.596 E38.21166
G1 X101.746 Y62.233 E38.25149
G1 X102.393 Y61.728 E38.31168
G1 X102.947 Y61.389 E38.35931
G1 X103.788 Y61.007 E38.42705
G1 X104.409 Y60.813 E38.47477
G1 X105.238 Y60.658 E38.53662
G1 X106 Y60.6 E38.59267
G1 X113.309 Y60.6 E39.1287
G1 X114.087 Y60.611 E39.18576
G1 X114.874 Y60.673 E39.24366
G1 X115.714 Y60.847 E39.30657
G1 X116.454 Y61.102 E39.36397
G1 X117.04 Y61.381 E39.41157
G1 X117.761 Y61.837 E39.47414
G1 X118.328 Y62.3 E39.52782
G1 X118.836 Y62.771 E39.57863
G1 X120.849 Y64.593 E39.77775
G1 X122.86 Y66.31 E39.97168
G1 X124.943 Y67.991 E40.16798
G1 X127.386 Y69.841 E40.39272
G1 X128.233 Y70.463 E40.46979
G1 X128.733 Y70.878 E40.51745
G1 X129.473 Y71.672 E40.59705
G1 X130.137 Y72.632 E40.68265
G1 X130.556 Y73.366 E40.74463
G1 X130.913 Y74.228 E40.81306
G1 X131.098 Y74.912 E40.86503
G1 X131.282 Y75.848 E40.93498
G1 X131.389 Y76.895 E41.01217
G1 X131.4 Y77.61 E41.06461
G1 X131.399 Y142.393 E45.81571
G1 X131.388 Y143.103 E45.86778
G1 X131.273 Y144.265 E45.95342
G1 X131.084 Y145.149 E46.01972
G1 X130.899 Y145.809 E46.06998
G1 X130.544 Y146.655 E46.13727
G1 X130.227 Y147.214 E46.1844
G1 X129.747 Y147.949 E46.24878
G1 X129.186 Y148.661 E46.31526
G1 X128.533 Y149.306 E46.38257
G1 X125.563 Y151.523 E46.65438
G1 X123.485 Y153.172 E46.84893
G1 X121.467 Y154.867 E47.04221
G1 X119.462 Y156.651 E47.23903
G1 X118.657 Y157.404 E47.31987
G1 X118.253 Y157.767 E47.35971
G1 X117.606 Y158.272 E47.4199
G1 X117.052 Y158.611 E47.46753
G1 X116.211 Y158.993 E47.53527
G1 X115.59 Y159.187 E47.58299
G1 X114.82 Y159.334 E47.64048
G1 X113.999 Y159.4 E47.70088
G1 X106.616 Y159.399 E48.24234
G1 X105.913 Y159.389 E48.2939
G1 X105.126 Y159.327 E48.3518
G1 X104.286 Y159.153 E48.41471
G1 X103.546 Y158.898 E48.47211
G1 X102.96 Y158.619 E48.51971
G1 X102.239 Y158.163 E48.58228
G1 X101.672 Y157.7 E48.63596
G1 X101.164 Y157.229 E48.68677
G1 X99.151 Y155.407 E48.88589
G1 X97.098 Y153.654 E49.08388
G1 X95.073 Y152.021 E49.27466
G1 X92.632 Y150.172 E49.49924
G1 X91.746 Y149.518 E49.58
G1 X91.146 Y149.006 E49.63785
G1 X90.568 Y148.379 E49.70039
G1 X89.826 Y147.31 E49.79582
G1 X89.399 Y146.54 E49.8604
G1 X89.079 Y145.745 E49.92325
G1 X88.902 Y145.084 E49.97343
G1 X88.718 Y144.149 E50.04332
G1 X88.611 Y143.097 E50.12087
G1 X88.6 Y142.356 E50.17522
G1 X88.601 Y77.606 E54.92389
G1 X88.618 Y76.797 E54.98324
G1 X88.718 Y75.849 E55.05315
G1 X88.893 Y74.954 E55.12003
G1 X89.109 Y74.162 E55.18023
G1 X89.351 Y73.559 E55.22789
G1 X89.841 Y72.681 E55.30163
G1 X90.292 Y72.008 E55.36104
G1 X90.796 Y71.359 E55.4213
M204 S3000
M205 X10 Y10
G0 F2000 X91.195 Y71.752
M204 S1800
M205 X8 Y8
G1 F2400 X91.697 Y71.243 E55.47373
G1 X92.138 Y70.885 E55.51539
G1 X92.634 Y70.524 E55.56038
G1 X94.775 Y68.924 E55.7564
G1 X96.863 Y67.267 E55.95189
G1 X98.893 Y65.562 E56.14632
G1 X100.902 Y63.774 E56.34355
G1 X101.717 Y63.012 E56.42538
G1 X102.093 Y62.673 E56.46251
G1 X102.685 Y62.206 E56.51781
G1 X103.239 Y61.867 E56.56544
G1 X103.955 Y61.542 E56.62311
G1 X104.576 Y61.348 E56.67082
G1 X105.282 Y61.216 E56.7235
G1 X106 Y61.16 E56.77631
G1 X113.301 Y61.16 E57.31176
G1 X114.079 Y61.171 E57.36882
G1 X114.829 Y61.231 E57.424
G1 X115.534 Y61.377 E57.4768
G1 X116.213 Y61.608 E57.5294
G1 X116.799 Y61.887 E57.577
G1 X117.407 Y62.271 E57.62974
G1 X117.947 Y62.711 E57.68082
G1 X118.455 Y63.182 E57.73163
G1 X120.485 Y65.019 E57.93241
G1 X122.508 Y66.746 E58.12749
G1 X124.591 Y68.427 E58.32379
G1 X127.055 Y70.293 E58.55047
G1 X127.875 Y70.894 E58.62503
G1 X128.375 Y71.309 E58.67268
G1 X129.012 Y71.991 E58.74113
G1 X129.676 Y72.951 E58.82673
G1 X130.069 Y73.643 E58.88509
G1 X130.372 Y74.374 E58.94313
G1 X130.557 Y75.058 E58.99509
G1 X130.725 Y75.906 E59.05849
G1 X130.829 Y76.904 E59.13208
G1 X130.84 Y77.61 E59.18387
G1 X130.839 Y142.384 E63.9343
G1 X130.828 Y143.094 E63.98638
G1 X130.725 Y144.148 E64.06404
G1 X130.536 Y145.032 E64.13034
G1 X130.36 Y145.657 E64.17796
G1 X130.057 Y146.379 E64.23538
G1 X129.757 Y146.909 E64.28005
G1 X129.307 Y147.602 E64.34065
G1 X128.746 Y148.314 E64.40713
G1 X128.198 Y148.857 E64.4637
G1 X125.228 Y151.074 E64.73551
G1 X123.137 Y152.733 E64.93127
G1 X121.107 Y154.438 E65.12569
G1 X119.09 Y156.233 E65.32371
G1 X118.282 Y156.988 E65.40481
G1 X117.906 Y157.327 E65.44194
G1 X117.314 Y157.794 E65.49723
G1 X116.76 Y158.133 E65.54487
G1 X116.044 Y158.458 E65.60253
G1 X115.423 Y158.652 E65.65025
G1 X114.717 Y158.784 E65.70292
G1 X113.999 Y158.84 E65.75574
G1 X106.624 Y158.839 E66.29661
G1 X105.921 Y158.829 E66.34817
G1 X105.171 Y158.769 E66.40335
G1 X104.466 Y158.623 E66.45615
G1 X103.787 Y158.392 E66.50875
G1 X103.201 Y158.113 E66.55635
G1 X102.593 Y157.729 E66.60909
G1 X102.053 Y157.289 E66.66018
G1 X101.545 Y156.818 E66.71098
G1 X99.515 Y154.981 E66.91177
G1 X97.462 Y153.228 E67.10975
G1 X95.425 Y151.585 E67.30168
G1 X92.964 Y149.721 E67.52809
G1 X92.107 Y149.09 E67.60614
G1 X91.558 Y148.626 E67.65886
G1 X90.98 Y147.999 E67.7214
G1 X90.316 Y147.038 E67.80707
G1 X89.889 Y146.268 E67.87164
G1 X89.62 Y145.6 E67.92445
G1 X89.443 Y144.939 E67.97464
G1 X89.275 Y144.091 E68.03804
G1 X89.171 Y143.089 E68.11192
G1 X89.16 Y142.356 E68.16568
G1 X89.161 Y77.616 E72.91362
G1 X89.175 Y76.856 E72.96937
G1 X89.275 Y75.908 E73.03928
G1 X89.434 Y75.099 E73.09975
G1 X89.629 Y74.371 E73.15502
G1 X89.871 Y73.768 E73.20267
G1 X90.306 Y72.993 E73.26785
G1 X90.757 Y72.32 E73.32726
G1 X91.195 Y71.752 E73.37987
M204 S3000
M205 X10 Y10
G0 F2000 X91.596 Y72.143
M204 S1800
M205 X8 Y8
G1 F2400 X92.05 Y71.678 E73.42753
G1 X92.491 Y71.32 E73.46918
G1 X92.969 Y70.973 E73.5125
G1 X95.11 Y69.373 E73.70852
G1 X97.211 Y67.706 E73.90522
G1 X99.253 Y65.991 E74.10079
G1 X101.285 Y64.183 E74.30026
G1 X102.092 Y63.428 E74.38131
G1 X102.468 Y63.089 E74.41843
G1 X102.977 Y62.684 E74.46614
G1 X103.531 Y62.345 E74.51377
G1 X104.122 Y62.077 E74.56136
G1 X104.743 Y61.883 E74.60908
G1 X105.382 Y61.767 E74.65671
G1 X106 Y61.72 E74.70216
G1 X113.293 Y61.72 E75.23702
G1 X114.071 Y61.731 E75.29408
G1 X114.719 Y61.78 E75.34174
G1 X115.356 Y61.908 E75.38939
G1 X115.972 Y62.114 E75.43703
G1 X116.558 Y62.393 E75.48463
G1 X117.106 Y62.743 E75.53231
G1 X117.591 Y63.143 E75.57842
G1 X118.079 Y63.597 E75.6273
G1 X120.121 Y65.445 E75.82928
G1 X122.156 Y67.182 E76.0255
G1 X124.239 Y68.863 E76.2218
G1 X126.724 Y70.745 E76.45042
G1 X127.517 Y71.325 E76.52247
G1 X128.017 Y71.74 E76.57012
G1 X128.552 Y72.31 E76.62746
G1 X129.189 Y73.228 E76.7094
G1 X129.582 Y73.92 E76.76777
G1 X129.831 Y74.52 E76.81541
G1 X130.016 Y75.204 E76.86737
G1 X130.168 Y75.965 E76.92429
G1 X130.269 Y76.913 E76.99421
G1 X130.28 Y77.61 E77.04533
G1 X130.279 Y142.375 E81.7951
G1 X130.268 Y143.085 E81.84718
G1 X130.177 Y144.032 E81.91695
G1 X129.997 Y144.88 E81.98053
G1 X129.821 Y145.505 E82.02815
G1 X129.569 Y146.104 E82.07581
G1 X129.287 Y146.604 E82.11791
G1 X128.837 Y147.297 E82.1785
G1 X128.352 Y147.916 E82.23618
G1 X127.804 Y148.459 E82.29275
G1 X124.88 Y150.635 E82.56006
G1 X122.789 Y152.294 E82.75582
G1 X120.747 Y154.009 E82.95138
G1 X118.718 Y155.815 E83.1506
G1 X117.907 Y156.572 E83.23196
G1 X117.531 Y156.911 E83.26909
G1 X117.022 Y157.316 E83.31679
G1 X116.468 Y157.655 E83.36442
G1 X115.877 Y157.923 E83.41201
G1 X115.256 Y158.117 E83.45973
G1 X114.617 Y158.233 E83.50736
G1 X113.999 Y158.28 E83.55281
G1 X106.632 Y158.279 E84.0931
G1 X105.929 Y158.269 E84.14466
G1 X105.281 Y158.22 E84.19232
G1 X104.644 Y158.092 E84.23997
G1 X104.028 Y157.886 E84.2876
G1 X103.442 Y157.607 E84.3352
G1 X102.894 Y157.257 E84.38289
G1 X102.409 Y156.857 E84.429
G1 X101.921 Y156.403 E84.47788
G1 X99.879 Y154.555 E84.67986
G1 X97.826 Y152.802 E84.87784
G1 X95.777 Y151.149 E85.07092
G1 X93.296 Y149.27 E85.29916
G1 X92.466 Y148.66 E85.37471
G1 X91.967 Y148.243 E85.4224
G1 X91.44 Y147.68 E85.47895
G1 X90.804 Y146.764 E85.56074
G1 X90.407 Y146.056 E85.62027
G1 X90.161 Y145.455 E85.66789
G1 X89.984 Y144.794 E85.71808
G1 X89.832 Y144.032 E85.77506
G1 X89.731 Y143.081 E85.8452
G1 X89.72 Y142.356 E85.89838
G1 X89.721 Y77.625 E90.64566
G1 X89.732 Y76.915 E90.69773
G1 X89.832 Y75.967 E90.76764
G1 X89.983 Y75.208 E90.8244
G1 X90.149 Y74.58 E90.87204
G1 X90.391 Y73.977 E90.91969
G1 X90.772 Y73.304 E90.97641
G1 X91.203 Y72.659 E91.0333
G1 X91.596 Y72.143 E91.08087
M204 S3000
M205 X10 Y10
G1 F2400 E85.08087
;MESH:housing_sendor_dht22_body_outdoor_pg7.stl
G0 F2000 X94.336 Y143.064
G0 X94.527 Y144.024
G0 X95.107 Y144.893
G0 X105.347 Y153.653
G0 X114.653 Y153.653
G0 X114.653 Y145.653
G0 X112.908 Y144.123
M204 S1800
M205 X8 Y8
;TYPE:WALL-INNER
G1 F2400 E91.08087
G1 F1200 X113.105 Y143.922 E91.10151
G1 X113.375 Y143.746 E91.12515
G1 X113.894 Y143.604 E91.16461
G1 X122.861 Y143.6 E91.82223
G1 X123.215 Y143.529 E91.84871
G1 X123.403 Y143.403 E91.86531
G1 X123.529 Y143.215 E91.88191
G1 X123.6 Y142.861 E91.90839
G1 X123.6 Y77.134 E96.72871
G1 X123.53 Y76.781 E96.75511
G1 X123.403 Y76.593 E96.77175
G1 X123.218 Y76.469 E96.78808
G1 X122.864 Y76.4 E96.81453
G1 X113.894 Y76.397 E97.47238
G1 X113.375 Y76.254 E97.51186
G1 X113.105 Y76.078 E97.53549
G1 X112.908 Y75.877 E97.55613
G1 X112.7 Y75.522 E97.58631
G1 X112.605 Y75.122 E97.61646
G1 X112.6 Y68.4 E98.10944
G1 X107.4 Y68.4 E98.4908
G1 X107.395 Y75.122 E98.98379
G1 X107.3 Y75.522 E99.01394
G1 X107.092 Y75.877 E99.04411
G1 X106.895 Y76.078 E99.06475
G1 X106.625 Y76.254 E99.08839
G1 X106.106 Y76.396 E99.12785
G1 X97.131 Y76.4 E99.78607
