;FLAVOR:Marlin
;TIME:4273
;Filament used: 2.64214m
;Layer height: 0.2
;MINX:87.48
;MINY:67.48
;MINZ:0.2
;MAXX:132.52
;MAXY:152.52
;MAXZ:5.075
;TARGET_MACHINE.NAME:Anycubic i3 Mega
;Generated with Cura_SteamEngine 5.8.0
M140 S68
M105
M190 S68
M104 S205
M105
M109 S205
M82 ;absolute extrusion mode
G21 ;metric values
G90 ;absolute positioning
M82 ;set extruder to absolute mode
M107 ;start with the fan off
G28 X0 Y0 ;move X/Y to min endstops
G28 Z0 ;move Z to min endstops
M501
M420 S1; Mesh verwenden, Drucker mit 25 pkten gelevelt
G1 Z15.0 F100 ;move the platform down 15mm
G92 E0 ;zero the extruded length
G1 F200 E3 ;extrude 3mm of feed stock
G92 E0 ;zero the extruded length again
G1 F100
M117 Printing...
G5
G92 E0
G92 E0
G1 F1200 E-5
;LAYER_COUNT:25
;LAYER:0
M107
M204 S3000
M205 X10 Y10
G1 F600 Z0.275
G0 F1200 X89.864 Y70.726 Z0.275
M204 S1800
M205 X8 Y8
;TYPE:SKIRT
G1 F600 Z0.2
G1 F1200 E0
G1 F2400 X90.577 Y70.011 E0.05134
G1 X91.062 Y69.578 E0.0844
G1 X92.139 Y68.836 E0.15091
G1 X93.033 Y68.378 E0.20198
G1 X93.723 Y68.078 E0.24024
G1 X94.914 Y67.729 E0.30335
G1 X95.917 Y67.57 E0.35498
G1 X96.801 Y67.487 E0.40013
G1 X122.331 Y67.48 E1.69828
G1 X123.289 Y67.5 E1.74701
G1 X124.198 Y67.585 E1.79343
G1 X124.911 Y67.703 E1.83018
G1 X125.83 Y67.923 E1.87823
G1 X126.583 Y68.195 E1.91894
G1 X127.656 Y68.729 E1.97988
G1 X128.309 Y69.116 E2.01848
G1 X129.224 Y69.82 E2.07718
G1 X129.989 Y70.577 E2.1319
G1 X130.422 Y71.062 E2.16496
G1 X131.164 Y72.139 E2.23147
G1 X131.622 Y73.033 E2.28254
G1 X131.922 Y73.723 E2.3208
G1 X132.269 Y74.904 E2.38339
G1 X132.428 Y75.894 E2.43438
G1 X132.513 Y76.793 E2.48029
G1 X132.52 Y142.299 E5.81115
G1 X132.5 Y143.282 E5.86114
G1 X132.416 Y144.183 E5.90715
G1 X132.297 Y144.915 E5.94486
G1 X132.157 Y145.55 E5.97793
G1 X131.722 Y146.768 E6.04369
G1 X131.292 Y147.616 E6.09204
G1 X130.891 Y148.297 E6.13222
G1 X130.136 Y149.274 E6.19501
G1 X129.423 Y149.989 E6.24635
G1 X128.938 Y150.422 E6.27941
G1 X127.861 Y151.164 E6.34591
G1 X126.967 Y151.622 E6.39699
G1 X126.277 Y151.922 E6.43525
G1 X125.091 Y152.27 E6.49809
G1 X124.093 Y152.429 E6.54948
G1 X123.205 Y152.513 E6.59484
G1 X97.67 Y152.52 E7.89324
G1 X96.71 Y152.5 E7.94207
G1 X95.802 Y152.415 E7.98844
G1 X95.074 Y152.296 E8.02595
G1 X94.44 Y152.155 E8.05897
G1 X93.294 Y151.749 E8.12079
G1 X92.386 Y151.293 E8.17246
G1 X91.703 Y150.891 E8.21276
G1 X90.726 Y150.136 E8.27554
G1 X90.011 Y149.423 E8.32688
G1 X89.578 Y148.938 E8.35994
G1 X88.836 Y147.861 E8.42645
G1 X88.378 Y146.967 E8.47752
G1 X88.078 Y146.277 E8.51578
G1 X87.73 Y145.088 E8.57877
G1 X87.57 Y144.079 E8.63072
G1 X87.487 Y143.201 E8.67556
G1 X87.48 Y77.639 E12.00927
G1 X87.495 Y76.769 E12.05351
G1 X87.535 Y76.193 E12.08287
G1 X87.727 Y74.96 E12.14632
G1 X87.948 Y74.107 E12.19113
G1 X88.37 Y73.053 E12.24886
G1 X88.706 Y72.387 E12.28679
G1 X89.108 Y71.704 E12.32709
G1 X89.864 Y70.726 E12.38994
M204 S3000
M205 X10 Y10
G0 F1200 X90.261 Y71.121
M204 S1800
M205 X8 Y8
G1 F2400 X90.95 Y70.429 E12.4396
G1 X91.435 Y69.996 E12.47266
G1 X92.395 Y69.334 E12.53195
G1 X93.256 Y68.892 E12.58116
G1 X93.946 Y68.592 E12.61942
G1 X95.002 Y68.282 E12.67538
G1 X95.969 Y68.128 E12.72517
G1 X96.853 Y68.045 E12.77032
G1 X122.32 Y68.04 E14.06527
G1 X123.238 Y68.058 E14.11195
G1 X124.108 Y68.138 E14.15638
G1 X124.782 Y68.248 E14.1911
G1 X125.642 Y68.451 E14.23604
G1 X126.334 Y68.697 E14.27338
G1 X127.37 Y69.211 E14.33219
G1 X128.023 Y69.598 E14.37078
G1 X128.83 Y70.218 E14.42253
G1 X129.571 Y70.95 E14.47549
G1 X130.004 Y71.435 E14.50855
G1 X130.666 Y72.395 E14.56785
G1 X131.108 Y73.256 E14.61706
G1 X131.408 Y73.946 E14.65532
G1 X131.716 Y74.993 E14.71081
G1 X131.87 Y75.947 E14.75995
G1 X131.955 Y76.846 E14.80586
G1 X131.96 Y142.288 E18.13346
G1 X131.942 Y143.231 E18.18142
G1 X131.863 Y144.094 E18.22549
G1 X131.75 Y144.794 E18.26154
G1 X131.61 Y145.429 E18.29461
G1 X131.222 Y146.515 E18.35325
G1 X130.809 Y147.332 E18.3998
G1 X130.408 Y148.013 E18.43998
G1 X129.739 Y148.879 E18.49562
G1 X129.05 Y149.571 E18.54528
G1 X128.565 Y150.004 E18.57834
G1 X127.605 Y150.666 E18.63763
G1 X126.744 Y151.108 E18.68684
G1 X126.054 Y151.408 E18.7251
G1 X125.003 Y151.717 E18.78081
G1 X124.04 Y151.871 E18.83039
G1 X123.152 Y151.955 E18.87575
G1 X97.681 Y151.96 E20.1709
G1 X96.761 Y151.942 E20.21769
G1 X95.892 Y151.862 E20.26206
G1 X95.196 Y151.749 E20.29792
G1 X94.562 Y151.608 E20.33094
G1 X93.545 Y151.248 E20.3858
G1 X92.67 Y150.81 E20.43556
G1 X91.987 Y150.408 E20.47585
G1 X91.121 Y149.739 E20.5315
G1 X90.429 Y149.05 E20.58115
G1 X89.996 Y148.565 E20.61421
G1 X89.334 Y147.605 E20.67351
G1 X88.892 Y146.744 E20.72272
G1 X88.592 Y146.054 E20.76098
G1 X88.283 Y145 E20.81683
G1 X88.128 Y144.026 E20.86697
G1 X88.045 Y143.148 E20.91182
G1 X88.04 Y77.648 E24.24237
G1 X88.054 Y76.808 E24.28509
G1 X88.094 Y76.232 E24.31445
G1 X88.27 Y75.097 E24.37285
G1 X88.468 Y74.314 E24.41392
G1 X88.87 Y73.305 E24.46914
G1 X89.189 Y72.671 E24.50523
G1 X89.591 Y71.988 E24.54553
G1 X90.261 Y71.121 E24.60124
M204 S3000
M205 X10 Y10
G0 F1200 X90.658 Y71.516
M204 S1800
M205 X8 Y8
G1 F2400 X91.323 Y70.847 E24.64921
G1 X91.808 Y70.414 E24.68227
G1 X92.651 Y69.832 E24.73436
G1 X93.479 Y69.406 E24.7817
G1 X94.169 Y69.106 E24.81996
G1 X95.091 Y68.835 E24.86883
G1 X96.021 Y68.686 E24.91672
G1 X96.905 Y68.603 E24.96187
G1 X122.31 Y68.6 E26.25366
G1 X123.188 Y68.616 E26.29831
G1 X124.019 Y68.691 E26.34074
G1 X124.656 Y68.794 E26.37355
G1 X125.454 Y68.979 E26.41521
G1 X126.146 Y69.225 E26.45255
G1 X127.084 Y69.693 E26.50585
G1 X127.737 Y70.08 E26.54445
G1 X128.487 Y70.661 E26.59269
G1 X129.153 Y71.323 E26.64044
G1 X129.586 Y71.808 E26.6735
G1 X130.168 Y72.651 E26.72559
G1 X130.594 Y73.479 E26.77293
G1 X130.894 Y74.169 E26.81119
G1 X131.163 Y75.083 E26.85964
G1 X131.312 Y76 E26.90688
G1 X131.397 Y76.899 E26.95279
G1 X131.4 Y142.278 E30.27719
G1 X131.384 Y143.181 E30.32311
G1 X131.31 Y144.005 E30.36518
G1 X131.203 Y144.673 E30.39958
G1 X131.063 Y145.308 E30.43264
G1 X130.722 Y146.262 E30.48416
G1 X130.309 Y147.079 E30.53071
G1 X129.926 Y147.728 E30.56903
G1 X129.342 Y148.484 E30.6176
G1 X128.677 Y149.153 E30.66557
G1 X128.192 Y149.586 E30.69863
G1 X127.349 Y150.168 E30.75071
G1 X126.521 Y150.594 E30.79806
G1 X125.831 Y150.894 E30.83632
G1 X124.914 Y151.164 E30.88493
G1 X123.987 Y151.313 E30.93267
G1 X123.099 Y151.397 E30.97802
G1 X97.691 Y151.4 E32.26997
G1 X96.811 Y151.384 E32.31472
G1 X95.981 Y151.309 E32.3571
G1 X95.318 Y151.202 E32.39125
G1 X94.684 Y151.061 E32.42427
G1 X93.796 Y150.747 E32.47217
G1 X92.921 Y150.309 E32.52192
G1 X92.272 Y149.926 E32.56024
G1 X91.516 Y149.342 E32.60882
G1 X90.847 Y148.677 E32.65678
G1 X90.414 Y148.192 E32.68984
G1 X89.832 Y147.349 E32.74193
G1 X89.406 Y146.521 E32.78928
G1 X89.106 Y145.831 E32.82753
G1 X88.836 Y144.912 E32.87624
G1 X88.686 Y143.973 E32.92459
G1 X88.603 Y143.095 E32.96943
G1 X88.6 Y77.657 E36.29683
G1 X88.613 Y76.847 E36.33802
G1 X88.653 Y76.271 E36.36738
G1 X88.814 Y75.231 E36.42089
G1 X88.989 Y74.52 E36.45813
G1 X89.371 Y73.556 E36.51085
G1 X89.672 Y72.955 E36.54503
G1 X90.074 Y72.272 E36.58533
G1 X90.658 Y71.516 E36.6339
M204 S3000
M205 X10 Y10
G0 F1200 X91.056 Y71.91
M204 S1800
M205 X8 Y8
G1 F2400 X91.696 Y71.265 E36.68011
G1 X92.181 Y70.832 E36.71317
G1 X92.908 Y70.33 E36.75809
G1 X93.702 Y69.92 E36.80353
G1 X94.392 Y69.62 E36.84178
G1 X95.18 Y69.388 E36.88355
G1 X96.073 Y69.244 E36.92955
G1 X96.957 Y69.161 E36.97469
G1 X122.301 Y69.16 E38.26339
G1 X123.139 Y69.174 E38.30601
G1 X123.931 Y69.244 E38.34643
G1 X124.532 Y69.34 E38.37738
G1 X125.266 Y69.507 E38.41566
G1 X125.958 Y69.753 E38.453
G1 X126.832 Y70.193 E38.50276
G1 X127.451 Y70.561 E38.53937
G1 X128.093 Y71.059 E38.58069
G1 X128.735 Y71.696 E38.62668
G1 X129.168 Y72.181 E38.65974
G1 X129.67 Y72.908 E38.70466
G1 X130.08 Y73.702 E38.7501
G1 X130.38 Y74.392 E38.78835
G1 X130.61 Y75.173 E38.82975
G1 X130.754 Y76.053 E38.87509
G1 X130.839 Y76.952 E38.92101
G1 X130.84 Y142.269 E42.24226
G1 X130.826 Y143.132 E42.28614
G1 X130.757 Y143.917 E42.32621
G1 X130.656 Y144.552 E42.35891
G1 X130.516 Y145.187 E42.39197
G1 X130.222 Y146.01 E42.43641
G1 X129.827 Y146.794 E42.48105
G1 X129.444 Y147.443 E42.51937
G1 X128.944 Y148.09 E42.56094
G1 X128.304 Y148.735 E42.60715
G1 X127.819 Y149.168 E42.64021
G1 X127.092 Y149.67 E42.68513
G1 X126.298 Y150.08 E42.73057
G1 X125.608 Y150.38 E42.76883
G1 X124.825 Y150.611 E42.81034
G1 X123.934 Y150.755 E42.85623
G1 X123.046 Y150.839 E42.90158
G1 X97.7 Y150.84 E44.19038
G1 X96.86 Y150.826 E44.2331
G1 X96.07 Y150.756 E44.27343
G1 X95.44 Y150.655 E44.30587
G1 X94.806 Y150.514 E44.33889
G1 X94.046 Y150.246 E44.37987
G1 X93.206 Y149.827 E44.4276
G1 X92.557 Y149.444 E44.46592
G1 X91.91 Y148.944 E44.5075
G1 X91.265 Y148.304 E44.5537
G1 X90.832 Y147.819 E44.58676
G1 X90.33 Y147.092 E44.63168
G1 X89.92 Y146.298 E44.67712
G1 X89.62 Y145.608 E44.71538
G1 X89.389 Y144.823 E44.75699
G1 X89.244 Y143.92 E44.80349
G1 X89.161 Y143.042 E44.84834
G1 X89.16 Y77.666 E48.17258
G1 X89.172 Y76.886 E48.21225
G1 X89.212 Y76.31 E48.24161
G1 X89.358 Y75.365 E48.29023
G1 X89.533 Y74.654 E48.32746
G1 X89.872 Y73.807 E48.37385
G1 X90.173 Y73.206 E48.40803
G1 X90.556 Y72.557 E48.44635
G1 X91.056 Y71.91 E48.48792
M204 S3000
M205 X10 Y10
G0 F1200 X91.454 Y72.304
M204 S1800
M205 X8 Y8
G1 F2400 X92.069 Y71.683 E48.53237
G1 X92.554 Y71.25 E48.56542
G1 X93.165 Y70.828 E48.60318
G1 X93.959 Y70.418 E48.64862
G1 X94.553 Y70.156 E48.68163
G1 X95.269 Y69.941 E48.71965
G1 X96.162 Y69.797 E48.76564
G1 X96.957 Y69.721 E48.80625
G1 X122.293 Y69.72 E50.09454
G1 X123.091 Y69.732 E50.13512
G1 X123.843 Y69.797 E50.1735
G1 X124.444 Y69.893 E50.20444
G1 X125.078 Y70.035 E50.23748
G1 X125.77 Y70.281 E50.27482
G1 X126.549 Y70.676 E50.31924
G1 X127.11 Y71.005 E50.35231
G1 X127.699 Y71.457 E50.39006
G1 X128.317 Y72.069 E50.43428
G1 X128.75 Y72.554 E50.46734
G1 X129.172 Y73.165 E50.5051
G1 X129.582 Y73.959 E50.55054
G1 X129.844 Y74.553 E50.58355
G1 X130.057 Y75.263 E50.62124
G1 X130.201 Y76.143 E50.66658
G1 X130.279 Y76.952 E50.70791
G1 X130.28 Y142.261 E54.02875
G1 X130.268 Y143.084 E54.0706
G1 X130.204 Y143.83 E54.10867
G1 X130.109 Y144.431 E54.13961
G1 X129.969 Y145.066 E54.17268
G1 X129.722 Y145.758 E54.21004
G1 X129.327 Y146.542 E54.25468
G1 X128.999 Y147.103 E54.28772
G1 X128.546 Y147.696 E54.32566
G1 X127.931 Y148.317 E54.37011
G1 X127.446 Y148.75 E54.40316
G1 X126.835 Y149.172 E54.44092
G1 X126.041 Y149.582 E54.48636
G1 X125.447 Y149.844 E54.51937
G1 X124.736 Y150.058 E54.55713
G1 X123.845 Y150.202 E54.60302
G1 X123.046 Y150.279 E54.64384
G1 X97.708 Y150.28 E55.93223
G1 X96.908 Y150.268 E55.97291
G1 X96.158 Y150.203 E56.01119
G1 X95.562 Y150.108 E56.04188
G1 X94.928 Y149.967 E56.0749
G1 X94.235 Y149.719 E56.11233
G1 X93.458 Y149.327 E56.15658
G1 X92.897 Y148.999 E56.18962
G1 X92.304 Y148.546 E56.22757
G1 X91.683 Y147.931 E56.27201
G1 X91.25 Y147.446 E56.30507
G1 X90.828 Y146.835 E56.34283
G1 X90.418 Y146.041 E56.38826
G1 X90.156 Y145.447 E56.42128
G1 X89.942 Y144.734 E56.45913
G1 X89.797 Y143.831 E56.50563
G1 X89.721 Y143.042 E56.54594
G1 X89.72 Y77.674 E59.86978
G1 X89.731 Y76.925 E59.90786
G1 X89.771 Y76.349 E59.93722
G1 X89.903 Y75.494 E59.98121
G1 X90.053 Y74.862 E60.01424
G1 X90.392 Y74.015 E60.06063
G1 X90.673 Y73.458 E60.09236
G1 X91.001 Y72.897 E60.1254
G1 X91.454 Y72.304 E60.16334
M204 S3000
M205 X10 Y10
G1 F1200 E55.16334
G1 F600 Z0.275
;MESH:housing_sendor_dht22_cover.stl
G0 F1200 X118.724 Y84.553 Z0.275
M204 S1800
M205 X8 Y8
;TYPE:WALL-INNER
G1 F600 Z0.2
G1 F1200 E60.16334
G1 X118.437 Y84.914 E60.18589
G1 X118.075 Y85.149 E60.20699
G1 F969.7 X117.5 Y85.405 E60.24508
G1 F809.6 X102.366 Y85.403 E61.34177
G1 F965.5 X101.926 Y85.15 E61.37261
G1 F1200 X101.563 Y84.914 E61.39378
G1 X101.276 Y84.553 E61.41633
G1 X101.146 Y84.23 E61.43335
G1 X101.1 Y83.872 E61.451
G1 F1195.7 X101.1 Y80.61 E61.61105
G1 F1150.7 X101.161 Y80.283 E61.62802
G1 F1116.3 X101.452 Y79.804 E61.65747
G1 F1158.6 X101.865 Y79.515 E61.683
G1 F1200 X102.346 Y79.366 E61.70762
G1 X117.624 Y79.369 E62.4546
G1 X118.125 Y79.511 E62.48006
G1 F1189.4 X118.558 Y79.839 E62.50685
G1 F1181 X118.818 Y80.278 E62.5322
G1 F1191.5 X118.9 Y80.764 E62.55647
G1 F1200 X118.9 Y83.872 E62.70843
G1 X118.854 Y84.23 E62.72607
G1 X118.724 Y84.553 E62.7431
M204 S3000
M205 X10 Y10
G0 X118.062 Y84.497
M204 S1800
M205 X8 Y8
G1 X117.845 Y84.638 E62.75575
G1 X117.5 Y84.712 E62.773
G1 X102.426 Y84.709 E63.51001
G1 X102.155 Y84.639 E63.52369
G1 X101.938 Y84.497 E63.53637
G1 X101.765 Y84.281 E63.5499
G1 X101.66 Y84.02 E63.56365
G1 X101.66 Y80.667 E63.72759
G1 X101.719 Y80.454 E63.7384
G1 X101.88 Y80.196 E63.75327
G1 X102.119 Y80.015 E63.76792
G1 X102.39 Y79.931 E63.7818
G1 X117.575 Y79.927 E64.52423
G1 X117.875 Y80.012 E64.53947
G1 X118.132 Y80.211 E64.55536
G1 X118.289 Y80.473 E64.5703
G1 X118.34 Y80.764 E64.58474
G1 X118.34 Y84.02 E64.74394
G1 X118.235 Y84.281 E64.75769
G1 X118.062 Y84.497 E64.77122
M204 S3000
M205 X10 Y10
G1 F1200 E59.77122
G1 F600 Z0.275
G0 F1200 X118.437 Y91.914 Z0.275
M204 S1800
M205 X8 Y8
G1 F600 Z0.2
G1 F1200 E64.77122
G1 X118.075 Y92.149 E64.79232
G1 F969.7 X117.5 Y92.405 E64.8304
G1 F809.6 X102.366 Y92.403 E65.9271
G1 F965.5 X101.926 Y92.15 E65.95794
G1 F1200 X101.563 Y91.914 E65.97911
G1 X101.276 Y91.553 E66.00166
G1 X101.146 Y91.23 E66.01868
G1 X101.1 Y90.872 E66.03633
G1 X101.1 Y87.764 E66.18829
G1 X101.146 Y87.406 E66.20593
G1 X101.276 Y87.083 E66.22296
G1 X101.563 Y86.722 E66.2455
G1 X101.926 Y86.486 E66.26667
G1 F965.5 X102.366 Y86.233 E66.29752
G1 F809.6 X117.5 Y86.231 E67.39421
G1 F969.7 X118.075 Y86.487 E67.43229
G1 F1200 X118.437 Y86.722 E67.45339
G1 X118.724 Y87.083 E67.47594
G1 X118.854 Y87.406 E67.49296
G1 X118.9 Y87.764 E67.51061
G1 X118.9 Y90.872 E67.66257
G1 X118.854 Y91.23 E67.68022
G1 X118.724 Y91.553 E67.69724
G1 X118.437 Y91.914 E67.71979
M204 S3000
M205 X10 Y10
G0 X118.062 Y91.497
M204 S1800
M205 X8 Y8
G1 X117.845 Y91.638 E67.73244
G1 X117.5 Y91.712 E67.74969
G1 X102.426 Y91.709 E68.4867
G1 X102.155 Y91.639 E68.50038
G1 X101.938 Y91.497 E68.51306
G1 X101.765 Y91.281 E68.52659
G1 X101.66 Y91.02 E68.54035
G1 X101.66 Y87.616 E68.70678
G1 X101.765 Y87.355 E68.72053
G1 X101.938 Y87.139 E68.73406
G1 X102.155 Y86.997 E68.74674
G1 X102.426 Y86.927 E68.76043
G1 X117.5 Y86.924 E69.49743
G1 X117.845 Y86.998 E69.51468
G1 X118.062 Y87.139 E69.52733
G1 X118.235 Y87.355 E69.54086
G1 X118.34 Y87.616 E69.55462
G1 X118.34 Y91.02 E69.72105
G1 X118.235 Y91.281 E69.7348
G1 X118.062 Y91.497 E69.74833
M204 S3000
M205 X10 Y10
G1 F1200 E64.74833
G1 F600 Z0.275
G0 F1200 X118.437 Y98.914 Z0.275
M204 S1800
M205 X8 Y8
G1 F600 Z0.2
G1 F1200 E69.74833
G1 X118.075 Y99.149 E69.76944
G1 F969.7 X117.5 Y99.405 E69.80752
G1 F809.6 X102.366 Y99.403 E70.90421
G1 F965.5 X101.926 Y99.15 E70.93505
G1 F1200 X101.563 Y98.914 E70.95622
G1 X101.276 Y98.553 E70.97877
G1 X101.146 Y98.23 E70.99579
G1 X101.1 Y97.872 E71.01344
G1 X101.1 Y94.764 E71.1654
G1 X101.146 Y94.406 E71.18305
G1 X101.276 Y94.083 E71.20007
G1 X101.563 Y93.722 E71.22262
G1 X101.926 Y93.486 E71.24379
G1 F965.5 X102.366 Y93.233 E71.27463
G1 F809.6 X117.5 Y93.231 E72.37132
G1 F969.7 X118.075 Y93.487 E72.4094
G1 F1200 X118.437 Y93.722 E72.43051
G1 X118.724 Y94.083 E72.45305
G1 X118.854 Y94.406 E72.47008
G1 X118.9 Y94.764 E72.48772
G1 X118.9 Y97.872 E72.63968
G1 X118.854 Y98.23 E72.65733
G1 X118.724 Y98.553 E72.67435
G1 X118.437 Y98.914 E72.6969
M204 S3000
M205 X10 Y10
G0 X118.062 Y98.497
M204 S1800
M205 X8 Y8
G1 X117.845 Y98.638 E72.70955
G1 X117.5 Y98.712 E72.72681
G1 X102.426 Y98.709 E73.46381
G1 X102.155 Y98.639 E73.47749
G1 X101.938 Y98.497 E73.49017
G1 X101.765 Y98.281 E73.5037
G1 X101.66 Y98.02 E73.51746
G1 X101.66 Y94.616 E73.68389
G1 X101.765 Y94.355 E73.69764
G1 X101.938 Y94.139 E73.71117
G1 X102.155 Y93.997 E73.72385
G1 X102.426 Y93.927 E73.73754
G1 X117.5 Y93.924 E74.47454
G1 X117.845 Y93.998 E74.49179
G1 X118.062 Y94.139 E74.50445
G1 X118.235 Y94.355 E74.51798
G1 X118.34 Y94.616 E74.53173
G1 X118.34 Y98.02 E74.69816
G1 X118.235 Y98.281 E74.71192
G1 X118.062 Y98.497 E74.72545
M204 S3000
M205 X10 Y10
G1 F1200 E69.72545
G1 F600 Z0.275
