;FLAVOR:Marlin
;TIME:9954
;Filament used: 6.02847m
;Layer height: 0.2
;MINX:0
;MINY:0
;MINZ:0.2
;MAXX:137.719
;MAXY:182.933
;MAXZ:7
;TARGET_MACHINE.NAME:Anycubic i3 Mega
;Generated with Cura_SteamEngine 5.11.0
M140 S68
M105
M190 S68
M104 S205
M105
M109 S205
G21 ;metric values
G90 ;absolute positioning
M82 ;set extruder to absolute mode
M107 ;start with the fan off
G28 X0 Y0 ;move X/Y to min endstops
G28 Z0 ;move Z to min endstops
M501
M420 S1; Mesh verwenden, Drucker mit 25 pkten gelevelt
G1 Z15.0 F100 ;move the platform down 15mm
G92 E0 ;zero the extruded length
G1 F200 E3 ;extrude 3mm of feed stock
G92 E0 ;zero the extruded length again
G1 F100
M117 Printing...
G5
M82 ;absolute extrusion mode
G92 E0
G92 E0
G1 F1200 E-5
;LAYER_COUNT:35
;LAYER:0
M107
M204 S3000
M205 X10 Y10
G1 F600 Z0.275
G0 F1200 X0.00 Y0.000 Z0.275
G0 X83.318 Y40.807
M204 S1800
M205 X8 Y8
;TYPE:SKIRT
G1 F600 Z0.2
G1 F1200 E0
G1 F2400 X83.825 Y40.047 E0.04645
G1 X84.287 Y39.497 E0.08298
G1 X85.109 Y38.729 E0.14018
G1 X85.633 Y38.345 E0.17321
G1 X86.693 Y37.756 E0.23487
G1 X87.422 Y37.468 E0.27473
G1 X88.416 Y37.213 E0.32691
G1 X89.695 Y37.07 E0.39235
G1 X129.525 Y37.067 E2.41763
G1 X130.299 Y37.078 E2.45699
G1 X131.226 Y37.153 E2.50428
G1 X132.198 Y37.353 E2.55474
G1 X132.879 Y37.577 E2.59119
G1 X133.973 Y38.101 E2.65287
G1 X134.735 Y38.608 E2.69941
G1 X135.379 Y39.156 E2.74241
G1 X135.919 Y39.729 E2.78244
G1 X136.548 Y40.585 E2.83646
G1 X136.963 Y41.334 E2.88
G1 X137.313 Y42.192 E2.92712
G1 X137.573 Y43.198 E2.97995
G1 X137.717 Y44.482 E3.04565
G1 X137.719 Y68.96 E4.29031
G1 X137.694 Y70.028 E4.34463
G1 X137.611 Y70.774 E4.38279
G1 X137.144 Y73.511 E4.52398
G1 X136.77 Y76.146 E4.6593
G1 X136.485 Y78.663 E4.78811
G1 X136.262 Y81.307 E4.92303
G1 X136.118 Y83.893 E5.05472
G1 X136.043 Y86.562 E5.19049
G1 X136.043 Y89.17 E5.3231
G1 X136.12 Y91.808 E5.4573
G1 X136.263 Y94.313 E5.58488
G1 X136.494 Y97.017 E5.72287
G1 X136.778 Y99.533 E5.85162
G1 X137.154 Y102.162 E5.98666
G1 X137.622 Y104.971 E6.13146
G1 X137.718 Y105.993 E6.18366
G1 X137.719 Y157.469 E8.80111
G1 X137.707 Y158.249 E8.84078
G1 X137.632 Y159.151 E8.8868
G1 X137.482 Y159.915 E8.92639
G1 X137.253 Y160.66 E8.96602
G1 X136.849 Y161.569 E9.0166
G1 X136.21 Y162.58 E9.07742
G1 X135.516 Y163.389 E9.13162
G1 X134.919 Y163.968 E9.1739
G1 X133.818 Y164.993 E9.25039
G1 X131.969 Y166.814 E9.38235
G1 X130.16 Y168.7 E9.51523
G1 X128.399 Y170.645 E9.64865
G1 X126.747 Y172.576 E9.77787
G1 X125.053 Y174.672 E9.9149
G1 X123.494 Y176.715 E10.04557
G1 X121.873 Y178.968 E10.1867
G1 X121.275 Y179.823 E10.23976
G1 X120.825 Y180.383 E10.27629
G1 X120.179 Y181.028 E10.32271
G1 X119.26 Y181.724 E10.38132
G1 X118.506 Y182.15 E10.42536
G1 X117.592 Y182.527 E10.47563
G1 X116.782 Y182.752 E10.51838
G1 X115.241 Y182.933 E10.59727
G1 X105.4 Y182.932 E11.09767
G1 X104.669 Y182.921 E11.13484
G1 X103.737 Y182.845 E11.18239
G1 X102.973 Y182.695 E11.22198
G1 X102.228 Y182.466 E11.26161
G1 X101.197 Y181.997 E11.31921
G1 X100.467 Y181.542 E11.36295
G1 X99.744 Y180.961 E11.41011
G1 X98.966 Y180.172 E11.46645
G1 X97.283 Y177.776 E11.61534
G1 X95.692 Y175.631 E11.75113
G1 X94.072 Y173.567 E11.88455
G1 X92.452 Y171.622 E12.01326
G1 X90.664 Y169.595 E12.1507
G1 X88.922 Y167.73 E12.28046
G1 X87.083 Y165.868 E12.41354
G1 X85.198 Y164.065 E12.54617
G1 X84.633 Y163.536 E12.58553
G1 X84.004 Y162.859 E12.63252
G1 X83.508 Y162.182 E12.67519
G1 X83.086 Y161.444 E12.71842
G1 X82.723 Y160.585 E12.76584
G1 X82.425 Y159.535 E12.82133
G1 X82.289 Y158.314 E12.8838
G1 X82.281 Y106.685 E15.50904
G1 X82.301 Y105.409 E15.57393
G1 X82.856 Y102.143 E15.74238
G1 X83.23 Y99.508 E15.87771
G1 X83.515 Y96.991 E16.00651
G1 X83.738 Y94.347 E16.14143
G1 X83.882 Y91.761 E16.27313
G1 X83.957 Y89.092 E16.40889
G1 X83.957 Y86.484 E16.54151
G1 X83.88 Y83.846 E16.6757
G1 X83.733 Y81.277 E16.80654
G1 X83.506 Y78.637 E16.94128
G1 X83.214 Y76.057 E17.0733
G1 X82.838 Y73.439 E17.20779
G1 X82.331 Y70.369 E17.36601
G1 X82.28 Y69.546 E17.40794
G1 X82.281 Y45.15 E18.64843
G1 X82.293 Y44.447 E18.68418
G1 X82.377 Y43.483 E18.73338
G1 X82.585 Y42.52 E18.78348
G1 X82.817 Y41.84 E18.82001
G1 X83.318 Y40.807 E18.87839
M204 S3000
M205 X10 Y10
G0 F1200 X83.785 Y41.116
M204 S1800
M205 X8 Y8
G1 F2400 X84.254 Y40.407 E18.92161
G1 X84.716 Y39.857 E18.95814
G1 X85.44 Y39.181 E19.0085
G1 X85.964 Y38.797 E19.04154
G1 X86.899 Y38.277 E19.09594
G1 X87.628 Y37.989 E19.13579
G1 X88.478 Y37.77 E19.18043
G1 X89.757 Y37.627 E19.24587
G1 X129.517 Y37.627 E21.26759
G1 X130.291 Y37.638 E21.30695
G1 X131.113 Y37.702 E21.34887
G1 X132.085 Y37.902 E21.39933
G1 X132.701 Y38.108 E21.43236
G1 X133.665 Y38.569 E21.48669
G1 X134.374 Y39.036 E21.52986
G1 X134.971 Y39.54 E21.56959
G1 X135.511 Y40.113 E21.60962
G1 X136.059 Y40.859 E21.65669
G1 X136.444 Y41.546 E21.69674
G1 X136.794 Y42.404 E21.74385
G1 X137.016 Y43.26 E21.78882
G1 X137.16 Y44.544 E21.85452
G1 X137.159 Y68.948 E23.09541
G1 X137.137 Y69.966 E23.14719
G1 X137.054 Y70.712 E23.18536
G1 X136.592 Y73.417 E23.32489
G1 X136.216 Y76.067 E23.46099
G1 X135.927 Y78.616 E23.59143
G1 X135.704 Y81.26 E23.72635
G1 X135.558 Y83.877 E23.85963
G1 X135.483 Y86.546 E23.99539
G1 X135.483 Y89.17 E24.12882
G1 X135.56 Y91.824 E24.26383
G1 X135.705 Y94.361 E24.39304
G1 X135.936 Y97.065 E24.53103
G1 X136.224 Y99.612 E24.66137
G1 X136.602 Y102.254 E24.79708
G1 X137.064 Y105.023 E24.93982
G1 X137.16 Y106.045 E24.99202
G1 X137.159 Y157.46 E27.60637
G1 X137.147 Y158.24 E27.64604
G1 X137.082 Y159.043 E27.687
G1 X136.932 Y159.807 E27.72659
G1 X136.718 Y160.493 E27.76313
G1 X136.338 Y161.34 E27.81034
G1 X135.784 Y162.216 E27.86304
G1 X135.126 Y162.987 E27.91458
G1 X134.537 Y163.558 E27.95629
G1 X133.436 Y164.583 E28.03278
G1 X131.576 Y166.415 E28.16553
G1 X129.756 Y168.312 E28.29921
G1 X127.984 Y170.269 E28.43345
G1 X126.311 Y172.224 E28.56429
G1 X124.617 Y174.32 E28.70132
G1 X123.039 Y176.388 E28.83359
G1 X121.418 Y178.641 E28.97472
G1 X120.838 Y179.472 E29.02625
G1 X120.388 Y180.032 E29.06278
G1 X119.785 Y180.63 E29.10596
G1 X118.985 Y181.236 E29.15699
G1 X118.231 Y181.662 E29.20103
G1 X117.442 Y181.987 E29.24442
G1 X116.632 Y182.212 E29.28717
G1 X115.241 Y182.373 E29.35837
G1 X105.408 Y182.372 E29.85836
G1 X104.677 Y182.361 E29.89553
G1 X103.845 Y182.295 E29.93797
G1 X103.081 Y182.145 E29.97756
G1 X102.395 Y181.931 E30.0141
G1 X101.491 Y181.521 E30.06457
G1 X100.818 Y181.105 E30.1048
G1 X100.095 Y180.524 E30.15196
G1 X99.397 Y179.811 E30.2027
G1 X97.733 Y177.442 E30.34991
G1 X96.142 Y175.297 E30.4857
G1 X94.512 Y173.221 E30.61991
G1 X92.872 Y171.252 E30.75021
G1 X91.084 Y169.225 E30.88765
G1 X89.32 Y167.336 E31.01907
G1 X87.47 Y165.463 E31.15293
G1 X85.585 Y163.66 E31.28557
G1 X85.042 Y163.153 E31.32334
G1 X84.456 Y162.528 E31.36691
G1 X83.96 Y161.851 E31.40958
G1 X83.601 Y161.223 E31.44636
G1 X83.262 Y160.432 E31.49012
G1 X82.977 Y159.428 E31.54319
G1 X82.846 Y158.252 E31.60336
G1 X82.841 Y106.694 E34.22499
G1 X82.86 Y105.46 E34.28774
G1 X83.408 Y102.237 E34.45397
G1 X83.784 Y99.587 E34.59007
G1 X84.073 Y97.038 E34.72051
G1 X84.296 Y94.394 E34.85543
G1 X84.442 Y91.777 E34.98871
G1 X84.517 Y89.108 E35.12448
G1 X84.517 Y86.484 E35.2579
G1 X84.44 Y83.83 E35.39291
G1 X84.292 Y81.245 E35.52457
G1 X84.064 Y78.589 E35.66012
G1 X83.77 Y75.994 E35.79291
G1 X83.392 Y73.359 E35.92827
G1 X82.89 Y70.333 E36.08424
G1 X82.84 Y69.546 E36.12434
G1 X82.841 Y45.158 E37.36442
G1 X82.851 Y44.493 E37.39824
G1 X82.925 Y43.599 E37.44385
G1 X83.116 Y42.698 E37.49068
G1 X83.322 Y42.082 E37.52371
G1 X83.785 Y41.116 E37.57818
M204 S3000
M205 X10 Y10
G0 F1200 X84.253 Y41.423
M204 S1800
M205 X8 Y8
G1 F2400 X84.683 Y40.767 E37.61806
G1 X85.145 Y40.217 E37.65459
G1 X85.771 Y39.633 E37.69812
G1 X86.295 Y39.249 E37.73115
G1 X87.105 Y38.798 E37.77829
G1 X87.834 Y38.51 E37.81815
G1 X88.542 Y38.326 E37.85535
G1 X89.757 Y38.187 E37.91753
G1 X129.509 Y38.187 E39.93884
G1 X130.283 Y38.198 E39.9782
G1 X131.069 Y38.26 E40.01829
G1 X131.907 Y38.433 E40.0618
G1 X132.523 Y38.639 E40.09483
G1 X133.359 Y39.038 E40.14193
G1 X134.015 Y39.466 E40.18176
G1 X134.565 Y39.926 E40.21822
G1 X135.061 Y40.447 E40.2548
G1 X135.57 Y41.133 E40.29823
G1 X135.955 Y41.82 E40.33828
G1 X136.253 Y42.549 E40.37832
G1 X136.46 Y43.324 E40.41911
G1 X136.6 Y44.544 E40.48155
G1 X136.599 Y68.937 E41.72189
G1 X136.58 Y69.904 E41.77107
G1 X136.497 Y70.65 E41.80924
G1 X136.04 Y73.323 E41.94712
G1 X135.662 Y75.988 E42.08399
G1 X135.369 Y78.569 E42.21607
G1 X135.146 Y81.213 E42.35099
G1 X134.998 Y83.861 E42.48585
G1 X134.923 Y86.53 E42.62162
G1 X134.923 Y89.17 E42.75586
G1 X135 Y91.84 E42.89168
G1 X135.147 Y94.409 E43.02252
G1 X135.378 Y97.113 E43.16051
G1 X135.67 Y99.691 E43.29244
G1 X136.05 Y102.346 E43.42881
G1 X136.507 Y105.077 E43.56961
G1 X136.6 Y106.045 E43.61906
G1 X136.599 Y157.451 E46.23296
G1 X136.587 Y158.231 E46.27262
G1 X136.532 Y158.937 E46.30863
G1 X136.397 Y159.64 E46.34503
G1 X136.183 Y160.326 E46.38157
G1 X135.828 Y161.109 E46.42528
G1 X135.357 Y161.854 E46.4701
G1 X134.737 Y162.585 E46.51884
G1 X134.155 Y163.148 E46.56001
G1 X133.054 Y164.173 E46.6365
G1 X131.183 Y166.016 E46.77004
G1 X129.352 Y167.924 E46.90451
G1 X127.569 Y169.893 E47.03958
G1 X125.875 Y171.872 E47.17204
G1 X124.181 Y173.968 E47.30907
G1 X122.584 Y176.061 E47.44294
G1 X120.964 Y178.314 E47.58404
G1 X120.401 Y179.121 E47.63407
G1 X119.951 Y179.681 E47.6706
G1 X119.445 Y180.185 E47.70692
G1 X118.707 Y180.75 E47.75418
G1 X118.015 Y181.145 E47.79469
G1 X117.292 Y181.447 E47.83454
G1 X116.482 Y181.672 E47.87728
G1 X115.241 Y181.813 E47.94079
G1 X105.416 Y181.812 E48.44037
G1 X104.685 Y181.801 E48.47755
G1 X103.951 Y181.745 E48.51498
G1 X103.248 Y181.61 E48.55138
G1 X102.562 Y181.396 E48.58792
G1 X101.783 Y181.043 E48.6314
G1 X101.169 Y180.668 E48.66799
G1 X100.446 Y180.087 E48.71515
G1 X99.828 Y179.451 E48.76024
G1 X98.183 Y177.108 E48.90581
G1 X96.592 Y174.963 E49.04161
G1 X94.952 Y172.875 E49.17661
G1 X93.292 Y170.882 E49.3085
G1 X91.504 Y168.855 E49.44594
G1 X89.718 Y166.942 E49.57901
G1 X87.857 Y165.058 E49.71367
G1 X85.972 Y163.255 E49.8463
G1 X85.451 Y162.77 E49.8825
G1 X84.865 Y162.145 E49.92606
G1 X84.445 Y161.57 E49.96227
G1 X84.116 Y161.002 E49.99565
G1 X83.777 Y160.211 E50.0394
G1 X83.529 Y159.324 E50.08624
G1 X83.403 Y158.19 E50.14425
G1 X83.401 Y106.702 E52.76232
G1 X83.419 Y105.511 E52.82289
G1 X83.96 Y102.331 E52.98691
G1 X84.338 Y99.666 E53.12377
G1 X84.631 Y97.085 E53.25585
G1 X84.854 Y94.441 E53.39077
G1 X85.002 Y91.793 E53.52563
G1 X85.077 Y89.124 E53.6614
G1 X85.077 Y86.484 E53.79564
G1 X85 Y83.814 E53.93146
G1 X84.851 Y81.213 E54.06393
G1 X84.622 Y78.541 E54.20029
G1 X84.326 Y75.931 E54.33386
G1 X83.946 Y73.28 E54.47003
G1 X83.449 Y70.297 E54.62381
G1 X83.4 Y69.546 E54.66207
G1 X83.401 Y45.166 E55.90175
G1 X83.411 Y44.501 E55.93557
G1 X83.473 Y43.713 E55.97576
G1 X83.647 Y42.876 E56.01923
G1 X83.853 Y42.26 E56.05226
G1 X84.253 Y41.423 E56.09943
M204 S3000
M205 X10 Y10
G0 F1200 X84.723 Y41.728
M204 S1800
M205 X8 Y8
G1 F2400 X85.114 Y41.125 E56.13597
G1 X85.529 Y40.625 E56.16901
G1 X86.102 Y40.085 E56.20905
G1 X86.626 Y39.701 E56.24208
G1 X87.313 Y39.318 E56.28207
G1 X87.98 Y39.051 E56.31861
G1 X88.607 Y38.882 E56.35163
G1 X89.757 Y38.747 E56.4105
G1 X129.501 Y38.747 E58.43141
G1 X130.275 Y38.758 E58.47077
G1 X131.024 Y38.818 E58.50898
G1 X131.729 Y38.964 E58.54559
G1 X132.345 Y39.17 E58.57861
G1 X133.055 Y39.509 E58.61862
G1 X133.658 Y39.898 E58.65511
G1 X134.159 Y40.312 E58.68815
G1 X134.655 Y40.833 E58.72473
G1 X135.083 Y41.409 E58.76122
G1 X135.438 Y42.035 E58.79781
G1 X135.713 Y42.698 E58.83431
G1 X135.904 Y43.39 E58.87081
G1 X136.04 Y44.544 E58.9299
G1 X136.039 Y68.926 E60.16968
G1 X136.02 Y69.893 E60.21886
G1 X135.945 Y70.556 E60.25278
G1 X135.488 Y73.229 E60.39067
G1 X135.108 Y75.909 E60.52831
G1 X134.811 Y78.522 E60.66203
G1 X134.588 Y81.166 E60.79695
G1 X134.438 Y83.845 E60.93338
G1 X134.363 Y86.514 E61.06915
G1 X134.363 Y89.17 E61.2042
G1 X134.44 Y91.856 E61.34084
G1 X134.589 Y94.457 E61.47331
G1 X134.82 Y97.161 E61.61131
G1 X135.116 Y99.77 E61.74482
G1 X135.498 Y102.439 E61.88192
G1 X135.95 Y105.132 E62.02077
G1 X136.04 Y106.045 E62.06741
G1 X136.039 Y157.443 E64.6809
G1 X136.028 Y158.19 E64.71889
G1 X135.981 Y158.834 E64.75173
G1 X135.862 Y159.473 E64.78478
G1 X135.648 Y160.159 E64.82132
G1 X135.352 Y160.813 E64.85782
G1 X134.929 Y161.493 E64.89854
G1 X134.348 Y162.182 E64.94437
G1 X133.773 Y162.738 E64.98504
G1 X132.672 Y163.763 E65.06153
G1 X130.79 Y165.617 E65.19586
G1 X128.948 Y167.536 E65.33111
G1 X127.154 Y169.517 E65.46701
G1 X125.439 Y171.52 E65.60109
G1 X123.745 Y173.616 E65.73813
G1 X122.129 Y175.734 E65.87359
G1 X120.51 Y177.987 E66.01466
G1 X119.964 Y178.77 E66.0632
G1 X119.514 Y179.33 E66.09973
G1 X119.052 Y179.786 E66.13274
G1 X118.427 Y180.265 E66.17278
G1 X117.799 Y180.628 E66.20966
G1 X117.076 Y180.93 E66.2495
G1 X116.376 Y181.121 E66.2864
G1 X115.241 Y181.253 E66.3445
G1 X105.424 Y181.252 E66.84367
G1 X104.693 Y181.241 E66.88085
G1 X104.054 Y181.194 E66.91343
G1 X103.415 Y181.075 E66.94648
G1 X102.729 Y180.861 E66.98302
G1 X102.075 Y180.565 E67.01952
G1 X101.461 Y180.19 E67.0561
G1 X100.848 Y179.697 E67.0961
G1 X100.26 Y179.092 E67.139
G1 X98.633 Y176.774 E67.283
G1 X97.042 Y174.629 E67.4188
G1 X95.392 Y172.529 E67.5546
G1 X93.712 Y170.512 E67.68808
G1 X91.924 Y168.485 E67.82551
G1 X90.116 Y166.548 E67.96024
G1 X88.244 Y164.653 E68.09569
G1 X86.359 Y162.85 E68.22832
G1 X85.833 Y162.36 E68.26488
G1 X85.316 Y161.812 E68.30319
G1 X84.93 Y161.289 E68.33624
G1 X84.601 Y160.721 E68.36961
G1 X84.293 Y159.993 E68.40981
G1 X84.081 Y159.22 E68.45057
G1 X83.96 Y158.128 E68.50643
G1 X83.961 Y106.71 E71.12094
G1 X83.978 Y105.562 E71.17932
G1 X84.512 Y102.425 E71.34112
G1 X84.892 Y99.745 E71.47876
G1 X85.189 Y97.132 E71.61248
G1 X85.412 Y94.488 E71.7474
G1 X85.562 Y91.809 E71.88384
G1 X85.637 Y89.14 E72.0196
G1 X85.637 Y86.484 E72.15466
G1 X85.56 Y83.798 E72.29129
G1 X85.41 Y81.181 E72.42458
G1 X85.18 Y78.493 E72.56176
G1 X84.882 Y75.868 E72.69609
G1 X84.5 Y73.201 E72.83309
G1 X84.008 Y70.259 E72.98476
G1 X83.96 Y69.546 E73.0211
G1 X83.961 Y45.174 E74.26037
G1 X83.971 Y44.509 E74.29418
G1 X84.031 Y43.758 E74.33249
G1 X84.178 Y43.054 E74.36906
G1 X84.384 Y42.438 E74.40209
G1 X84.723 Y41.728 E74.4421
M204 S3000
M205 X10 Y10
G0 F1200 X85.195 Y42.03
M204 S1800
M205 X8 Y8
G1 F2400 X85.545 Y41.483 E74.47512
G1 X85.96 Y40.983 E74.50816
G1 X86.433 Y40.537 E74.54121
G1 X86.957 Y40.153 E74.57425
G1 X87.524 Y39.837 E74.60725
G1 X88.126 Y39.592 E74.6403
G1 X88.753 Y39.423 E74.67332
G1 X89.757 Y39.307 E74.72471
G1 X129.493 Y39.307 E76.74521
G1 X130.267 Y39.318 E76.78457
G1 X130.914 Y39.367 E76.81756
G1 X131.551 Y39.495 E76.8506
G1 X132.167 Y39.701 E76.88363
G1 X132.754 Y39.981 E76.9167
G1 X133.301 Y40.33 E76.94969
G1 X133.802 Y40.744 E76.98274
G1 X134.247 Y41.217 E77.01576
G1 X134.632 Y41.741 E77.04882
G1 X134.949 Y42.308 E77.08186
G1 X135.194 Y42.909 E77.11486
G1 X135.363 Y43.536 E77.14788
G1 X135.48 Y44.544 E77.19948
G1 X135.479 Y68.915 E78.43869
G1 X135.46 Y69.882 E78.48787
G1 X135.393 Y70.462 E78.51756
G1 X134.936 Y73.135 E78.65545
G1 X134.554 Y75.83 E78.79386
G1 X134.253 Y78.475 E78.92922
G1 X134.03 Y81.119 E79.06414
G1 X133.878 Y83.829 E79.20215
G1 X133.803 Y86.498 E79.33792
G1 X133.803 Y89.17 E79.47379
G1 X133.88 Y91.872 E79.61123
G1 X134.031 Y94.505 E79.74534
G1 X134.262 Y97.209 E79.88333
G1 X134.562 Y99.849 E80.01843
G1 X134.946 Y102.532 E80.15625
G1 X135.393 Y105.189 E80.29325
G1 X135.48 Y106.045 E80.337
G1 X135.479 Y157.435 E82.95008
G1 X135.469 Y158.152 E82.98655
G1 X135.43 Y158.731 E83.01605
G1 X135.311 Y159.37 E83.0491
G1 X135.114 Y159.989 E83.08213
G1 X134.843 Y160.579 E83.11515
G1 X134.501 Y161.132 E83.14821
G1 X133.92 Y161.821 E83.19404
G1 X133.391 Y162.328 E83.2313
G1 X132.29 Y163.353 E83.30778
G1 X130.397 Y165.218 E83.44291
G1 X128.544 Y167.148 E83.57895
G1 X126.739 Y169.141 E83.71568
G1 X125.003 Y171.168 E83.85138
G1 X123.309 Y173.264 E83.98841
G1 X121.674 Y175.407 E84.12548
G1 X120.056 Y177.66 E84.26652
G1 X119.525 Y178.422 E84.31374
G1 X119.121 Y178.931 E84.34679
G1 X118.659 Y179.387 E84.37979
